<?xml version="1.0" encoding="UTF-8"?>
<map version="1.10" tiledversion="1.11.2" orientation="orthogonal" renderorder="right-down" width="24" height="12" tilewidth="32" tileheight="32" infinite="0" nextlayerid="3" nextobjectid="1">
 <tileset firstgid="1" source="../tilesets/forest01.tsx"/>
 <layer id="1" name="decor" width="24" height="12">
  <data encoding="csv">
237,240,60,19,19,19,19,59,1,42,46,1,25,1,1,1,1,1,1,24,7,5,1,32,
237,240,1,1,32,46,42,46,42,43,47,34,25,1,1,1,1,1,1,24,7,5,1,33,
237,240,1,1,33,44,48,44,48,44,48,35,25,1,1,1,32,34,25,8,16,5,32,34,
237,240,1,1,64,45,49,45,49,45,49,1,25,1,1,1,33,35,25,6,15,5,33,35,
237,240,1,11,8,8,8,8,8,8,8,12,25,1,32,34,1,1,1,24,7,5,1,32,
237,240,1,10,6,6,6,6,6,6,15,5,25,1,33,35,1,1,1,24,7,5,1,33,
237,240,1,32,46,32,46,42,46,17,7,5,25,22,1,1,1,1,20,24,7,5,32,34,
238,241,32,43,47,43,47,43,47,34,7,5,25,23,18,18,18,18,21,24,7,5,33,35,
239,242,33,44,48,44,48,44,48,35,7,5,25,23,19,19,19,19,21,24,7,5,1,32,
237,240,32,43,47,43,47,43,47,34,7,13,8,60,19,19,19,19,59,8,16,5,1,33,
237,240,33,44,48,44,48,44,48,35,10,6,6,6,6,6,6,6,6,6,6,9,32,34,
237,240,32,43,47,43,47,43,47,34,32,34,32,34,32,34,32,34,32,34,32,34,33,35
</data>
 </layer>
 <layer id="2" name="Tile Layer 2" width="24" height="12">
  <data encoding="csv">
0,0,0,0,0,0,0,0,0,0,0,0,0,0,0,0,0,0,0,0,0,0,0,0,
0,0,0,0,0,0,0,0,0,0,0,0,0,0,0,0,0,0,0,0,0,0,0,0,
0,0,0,0,0,0,0,0,0,0,0,0,0,0,0,0,0,0,0,0,0,0,0,0,
0,0,0,0,0,0,0,0,0,0,0,0,0,0,0,0,0,0,0,0,0,0,0,0,
0,0,0,0,0,0,0,0,0,0,0,0,0,0,0,0,0,0,0,0,0,0,0,0,
0,0,0,0,0,0,0,0,0,0,0,0,0,0,0,0,0,0,0,0,0,0,0,0,
0,0,0,0,0,0,0,0,0,0,0,0,0,0,0,0,0,0,0,0,0,0,0,0,
0,0,0,0,0,0,0,0,0,0,0,0,0,0,0,0,0,0,0,0,0,0,0,0,
0,0,0,0,0,0,0,0,0,0,0,0,0,0,0,0,0,0,0,0,0,0,0,0,
0,0,0,0,0,0,0,0,0,0,0,0,0,0,0,0,0,0,0,0,0,0,0,0,
0,0,0,0,0,0,0,0,0,0,0,0,0,0,0,0,0,0,0,0,0,0,0,0,
0,0,0,0,0,0,0,0,0,0,0,0,0,0,0,0,0,0,0,0,0,0,0,0
</data>
 </layer>
</map>
