<?xml version="1.0" encoding="UTF-8"?>
<map version="1.10" tiledversion="1.11.2" orientation="orthogonal" renderorder="right-down" width="24" height="12" tilewidth="32" tileheight="32" infinite="0" nextlayerid="6" nextobjectid="1">
 <tileset firstgid="1" source="../tilesets/forest01.tsx"/>
 <tileset firstgid="321" source="../tilesets/blue-labels.tsx"/>
 <layer id="1" name="decor" width="24" height="12">
  <data encoding="csv">
0,0,0,0,0,19,19,59,1,42,0,0,0,0,1,1,1,1,0,0,7,5,0,0,
0,240,1,1,0,46,42,46,42,43,0,0,25,0,1,1,1,1,0,24,7,5,1,0,
0,240,1,1,0,0,48,44,48,44,0,0,25,0,1,1,32,34,0,8,16,5,0,0,
0,240,1,1,64,0,0,0,0,0,0,1,25,0,1,1,33,35,0,6,15,5,0,0,
0,240,1,11,8,8,8,8,8,8,8,12,25,0,32,34,1,1,0,24,7,5,1,0,
0,240,1,10,6,6,6,6,6,6,15,5,25,0,33,35,1,1,0,24,7,5,1,0,
0,240,1,0,0,0,0,0,0,0,7,5,25,0,1,1,1,1,0,24,7,5,0,0,
0,0,0,0,47,43,47,43,47,0,7,5,25,0,18,18,18,18,0,24,7,5,0,0,
239,242,33,44,48,44,48,44,48,0,7,5,25,0,19,19,19,19,0,24,7,5,1,0,
237,240,32,43,47,43,47,43,47,0,7,13,8,0,0,0,0,0,0,8,16,5,1,0,
237,240,33,44,48,44,48,44,48,0,10,6,6,6,6,6,6,6,6,6,6,9,0,0,
237,240,32,43,47,43,47,43,47,0,0,0,0,0,0,0,0,0,0,0,0,0,0,35
</data>
 </layer>
 <layer id="2" name="colliders" width="24" height="12">
  <data encoding="csv">
237,240,60,19,19,0,0,0,0,0,46,1,25,1,0,0,0,0,1,24,0,0,1,32,
237,0,0,0,32,0,0,0,0,0,47,34,0,1,0,0,0,0,1,0,0,0,0,33,
237,0,0,0,33,44,0,0,0,0,48,35,0,1,0,0,0,0,25,0,0,0,32,34,
237,0,0,0,0,45,49,45,49,45,49,0,0,1,0,0,0,0,25,0,0,0,33,35,
237,0,0,0,0,0,0,0,0,0,0,0,0,1,0,0,0,0,1,0,0,0,0,32,
237,0,0,0,0,0,0,0,0,0,0,0,0,1,0,0,0,0,1,0,0,0,0,33,
237,0,0,32,46,32,46,42,46,17,0,0,0,22,0,0,0,0,20,0,0,0,32,34,
238,241,32,43,0,0,0,0,0,34,0,0,0,23,0,0,0,0,21,0,0,0,33,35,
0,0,0,0,0,0,0,0,0,35,0,0,0,23,0,0,0,0,21,0,0,0,0,32,
0,0,0,0,0,0,0,0,0,34,0,0,0,60,19,19,19,19,59,0,0,0,0,33,
0,0,0,0,0,0,0,0,0,35,0,0,0,0,0,0,0,0,0,0,0,0,32,34,
0,0,0,0,0,0,0,0,0,34,32,34,32,34,32,34,32,34,32,34,32,34,33,0
</data>
 </layer>
 <layer id="3" name="characters" width="24" height="12" opacity="0.29">
  <data encoding="csv">
0,0,0,0,0,0,0,0,0,0,0,0,0,0,0,0,0,0,0,0,0,0,0,0,
0,0,0,0,0,0,0,0,0,0,0,0,0,0,0,0,0,0,0,0,0,0,0,0,
0,0,0,0,0,0,0,0,0,0,0,0,0,0,0,0,0,0,0,0,0,0,0,0,
0,0,0,0,0,0,0,0,0,0,0,0,0,0,0,0,0,0,0,0,0,0,0,0,
0,0,0,0,0,0,0,0,0,0,0,0,0,0,0,0,0,0,0,0,0,0,0,0,
0,0,0,0,0,0,0,0,0,0,0,0,0,0,0,0,0,0,0,0,0,0,0,0,
0,0,0,0,0,0,0,0,0,0,0,0,0,0,0,0,0,0,0,0,0,0,0,0,
0,348,0,0,0,0,0,0,0,0,0,0,0,0,0,0,0,0,0,0,0,0,0,0,
0,0,0,0,0,0,0,0,0,0,0,0,0,0,0,0,0,0,0,0,0,0,0,0,
0,0,0,0,0,0,0,0,0,0,0,0,0,0,0,0,0,0,0,0,0,0,0,0,
0,0,0,0,0,0,0,0,0,0,0,0,0,0,0,0,0,0,0,0,0,0,0,0,
0,0,0,0,0,0,0,0,0,0,0,0,0,0,0,0,0,0,0,0,0,0,0,0
</data>
 </layer>
 <layer id="4" name="actions" width="24" height="12" opacity="0.58">
  <data encoding="csv">
0,0,0,0,0,0,0,0,0,0,0,0,0,0,0,0,0,0,0,0,531,531,0,0,
0,0,0,0,0,0,0,0,0,0,0,0,0,0,0,0,0,0,0,0,0,0,0,0,
0,0,0,0,0,0,0,0,0,0,0,0,0,0,0,0,0,0,0,0,0,0,0,0,
0,0,0,0,527,0,0,0,0,0,0,0,0,0,0,0,0,0,0,0,0,0,0,0,
0,0,0,0,527,0,0,0,0,0,0,0,0,0,0,0,0,0,0,0,0,0,0,0,
0,0,0,0,0,0,0,0,0,0,0,0,0,0,0,0,0,0,0,0,0,0,0,0,
0,0,0,0,0,0,0,0,0,0,0,0,0,0,0,0,0,0,0,0,0,0,0,0,
0,0,0,0,0,0,0,0,0,0,0,0,0,0,0,0,0,0,0,0,0,0,0,0,
0,0,0,0,0,0,0,0,0,0,0,0,0,0,0,0,0,0,0,0,0,0,0,0,
0,0,0,0,0,0,0,0,0,0,0,0,0,0,0,0,0,0,0,0,0,0,0,0,
0,0,0,0,0,0,0,0,0,0,0,0,0,0,0,0,0,0,0,0,0,0,0,0,
0,0,0,0,0,0,0,0,0,0,0,0,0,0,0,0,0,0,0,0,0,0,0,0
</data>
 </layer>
 <layer id="5" name="metadata" width="24" height="12">
  <data encoding="csv">
0,0,0,0,0,0,0,0,0,0,0,0,0,0,0,0,0,0,0,0,0,0,0,0,
0,0,0,0,0,0,0,0,0,0,0,0,0,0,0,0,0,0,0,0,0,0,0,0,
0,0,0,0,0,0,0,0,0,0,0,0,0,0,0,0,0,0,0,0,0,0,0,0,
0,0,0,0,0,0,0,0,0,0,0,0,0,0,0,0,0,0,0,0,0,0,0,0,
0,0,0,0,0,0,0,0,0,0,0,0,0,0,0,0,0,0,0,0,0,0,0,0,
0,0,0,0,0,0,0,0,0,0,0,0,0,0,0,0,0,0,0,0,0,0,0,0,
0,0,0,0,0,0,0,0,0,0,0,0,0,0,0,0,0,0,0,0,0,0,0,0,
0,0,0,0,0,0,0,0,0,0,0,0,0,0,0,0,0,0,0,0,0,0,0,0,
0,0,0,0,0,0,0,0,0,0,0,0,0,0,0,0,0,0,0,0,0,0,0,0,
0,0,0,0,0,0,0,0,0,0,0,0,0,0,0,0,0,0,0,0,0,0,0,0,
0,0,0,0,0,0,0,0,0,0,0,0,0,0,0,0,0,0,0,0,0,0,0,0,
0,0,0,0,0,0,0,0,0,0,0,0,0,0,0,0,0,0,0,0,0,0,0,0
</data>
 </layer>
</map>
