<?xml version="1.0" encoding="UTF-8"?>
<map version="1.10" tiledversion="1.11.2" orientation="orthogonal" renderorder="right-down" width="35" height="35" tilewidth="32" tileheight="32" infinite="0" nextlayerid="2" nextobjectid="1">
 <tileset firstgid="1" source="../tilesets/castle01.tsx"/>
 <layer id="1" name="Tile Layer 1" width="35" height="35">
  <data encoding="csv">
25,25,25,25,25,23,25,25,25,25,25,23,25,25,25,25,25,23,25,25,25,25,25,23,25,25,25,25,25,23,25,25,25,25,25,
22,22,21,22,26,24,26,22,21,22,26,24,26,22,21,22,26,24,26,22,21,22,26,24,26,22,21,22,26,24,26,22,21,22,22,
48,2,1,2,1,2,1,2,1,2,1,2,1,2,1,2,1,2,1,2,1,2,1,2,1,2,1,2,1,2,1,2,1,2,58,
50,1,2,1,2,1,2,1,2,1,2,1,2,1,2,1,2,1,2,1,2,1,2,1,2,1,2,1,2,1,2,1,2,1,60,
50,2,1,2,1,2,1,2,1,2,1,2,1,2,1,2,1,2,1,2,1,2,1,2,1,2,1,2,1,2,1,2,1,2,60,
25,25,25,25,25,25,25,25,25,25,25,25,25,25,25,19,2,1,2,20,25,25,25,25,25,25,25,25,25,25,25,25,25,25,25,
0,0,0,0,0,0,0,0,0,0,0,0,0,0,0,19,1,2,1,20,0,0,0,0,0,0,0,0,0,0,0,0,0,0,0,
0,0,0,0,0,0,0,0,0,0,0,0,0,0,0,17,2,1,2,18,0,0,0,0,0,0,0,0,0,0,0,0,0,0,0,
0,0,0,0,0,0,0,0,0,0,0,0,0,0,0,19,1,2,1,20,0,0,0,0,0,0,0,0,0,0,0,0,0,0,0,
0,0,0,0,0,0,0,0,0,0,0,0,0,0,0,19,2,1,2,20,0,0,0,0,0,0,0,0,0,0,0,0,0,0,0,
0,0,0,0,0,0,0,0,0,0,0,0,0,0,0,19,1,2,1,20,0,0,0,0,0,0,0,0,0,0,0,0,0,0,0,
52,5,8,11,27,30,33,5,8,11,27,30,33,42,42,17,2,1,2,18,42,42,27,30,33,5,8,11,27,30,33,5,8,11,62,
52,5,8,11,28,31,34,5,8,11,28,31,34,42,42,19,1,2,1,20,42,42,28,31,34,5,8,11,28,31,34,5,8,11,62,
51,6,9,12,29,29,29,6,9,12,29,29,29,35,32,19,2,1,2,20,32,35,29,29,29,6,9,12,29,29,29,6,9,12,61,
46,7,10,13,3,4,3,7,10,13,3,4,3,2,1,2,1,2,1,2,1,2,3,4,3,7,10,13,3,4,3,7,10,13,56,
49,1,2,1,4,3,4,1,2,1,4,3,4,1,2,1,2,1,2,1,2,1,4,3,4,1,2,1,4,3,4,1,2,1,59,
46,2,1,2,3,4,3,2,1,2,3,4,3,2,1,2,1,2,1,2,1,2,3,4,3,2,1,2,3,4,3,2,1,2,56,
47,1,2,1,4,3,4,1,2,1,4,3,4,1,2,1,2,1,2,1,2,1,4,3,4,1,2,1,4,3,4,1,2,1,59,
48,2,1,2,3,4,3,2,1,2,3,4,3,2,1,2,1,2,1,2,1,2,3,4,3,2,1,2,3,4,3,2,1,2,58,
50,1,2,1,4,3,4,1,2,1,4,3,4,1,2,1,2,1,2,1,2,1,4,3,4,1,2,1,4,3,4,1,2,1,60,
50,2,1,2,3,4,3,2,1,2,3,4,3,2,1,2,1,2,1,2,1,2,3,4,3,2,1,2,3,4,3,2,1,2,60,
25,25,25,25,25,25,25,25,25,25,25,25,25,25,25,19,2,1,2,20,25,25,25,25,25,25,25,25,25,25,25,25,25,25,25,
0,0,0,0,0,0,0,0,0,0,0,0,0,0,0,19,1,2,1,20,0,0,0,0,0,0,0,0,0,0,0,0,0,0,0,
0,0,0,0,0,0,0,0,0,0,0,0,0,0,0,19,2,1,2,20,0,0,0,0,0,0,0,0,0,0,0,0,0,0,0,
0,0,0,0,0,0,0,0,0,0,0,0,0,0,0,19,1,2,1,20,0,0,0,0,0,0,0,0,0,0,0,0,0,0,0,
0,0,0,0,0,0,0,0,0,0,0,0,0,0,0,19,2,1,2,20,0,0,0,0,0,0,0,0,0,0,0,0,0,0,0,
25,25,25,25,25,25,25,25,25,25,25,25,25,25,25,19,1,2,1,20,25,25,25,25,25,25,25,25,25,25,25,25,25,25,25,
25,25,25,25,25,25,25,25,25,25,25,25,25,25,25,19,2,1,2,20,25,25,25,25,25,25,25,25,25,25,25,25,25,25,25,
38,25,23,25,36,40,38,36,40,25,23,25,38,36,40,17,1,2,1,18,38,36,40,25,23,25,38,36,40,38,36,25,23,25,40,
39,26,24,26,37,41,39,37,41,26,24,26,39,37,41,22,2,1,2,22,39,37,41,26,24,26,39,37,41,39,37,26,24,26,41,
48,2,1,2,1,2,1,2,1,2,1,2,1,2,1,2,1,2,1,2,1,2,1,2,1,2,1,2,1,2,1,2,1,2,58,
50,1,2,1,2,1,2,1,2,1,2,1,2,1,2,1,2,1,2,1,2,1,2,1,2,1,2,1,2,1,2,1,2,1,60,
50,2,1,2,1,2,1,2,1,2,1,2,1,2,1,2,1,2,1,2,1,2,1,2,1,2,1,2,1,2,1,2,1,2,60,
25,25,25,25,25,25,25,25,25,25,25,25,25,25,25,25,25,25,25,25,25,25,25,25,25,25,25,25,25,25,25,25,25,25,25,
0,0,0,0,0,0,0,0,0,0,0,0,0,0,0,0,0,0,0,0,0,0,0,0,0,0,0,0,0,0,0,0,0,0,0
</data>
 </layer>
</map>
