<?xml version="1.0" encoding="UTF-8"?>
<map version="1.10" tiledversion="1.11.2" orientation="orthogonal" renderorder="right-down" width="12" height="24" tilewidth="32" tileheight="32" infinite="0" nextlayerid="5" nextobjectid="1">
 <tileset firstgid="1" source="../tilesets/underground02.tsx"/>
 <tileset firstgid="257" source="../tilesets/blue-labels.tsx"/>
 <layer id="1" name="decor" width="12" height="24">
  <data encoding="csv">
0,0,0,0,0,0,0,0,0,0,0,0,
0,0,0,0,0,0,0,0,0,0,0,0,
0,0,0,0,0,0,0,0,0,0,0,0,
0,0,0,0,0,53,54,0,0,0,0,0,
0,0,0,0,0,53,54,0,0,0,0,0,
0,0,0,0,0,53,54,0,0,0,0,0,
0,0,0,0,0,53,54,0,0,0,0,0,
0,0,0,0,0,53,54,0,0,0,0,0,
0,0,0,0,0,53,54,0,0,0,0,0,
0,0,0,0,0,53,54,0,0,0,0,0,
0,0,0,0,0,53,54,0,0,0,0,0,
0,0,0,0,0,53,54,0,0,0,0,0,
0,0,0,0,0,53,54,0,0,0,0,0,
0,0,0,0,0,53,54,0,0,0,0,0,
0,0,0,0,0,53,54,0,0,0,0,0,
0,0,0,0,0,53,54,0,0,0,0,0,
0,0,0,0,0,53,54,0,0,0,0,0,
0,0,0,0,0,53,54,0,0,0,0,0,
0,0,0,0,0,53,54,0,0,0,0,0,
0,0,0,0,0,53,54,0,0,0,0,0,
0,0,0,0,0,53,54,0,0,0,0,0,
0,0,0,0,0,53,54,0,0,0,0,0,
0,0,0,0,0,53,54,0,0,0,0,0,
0,0,0,0,0,53,54,0,0,0,0,0
</data>
 </layer>
 <layer id="2" name="colliders" width="12" height="24">
  <data encoding="csv">
0,0,0,0,122,122,122,122,0,0,0,0,
0,0,0,0,122,122,122,122,0,0,0,0,
0,0,0,0,122,122,122,122,0,0,0,0,
0,0,0,0,122,0,0,122,0,0,0,0,
0,0,0,0,122,0,0,122,0,0,0,0,
0,0,0,0,122,0,0,122,0,0,0,0,
0,0,0,0,122,0,0,122,0,0,0,0,
0,0,0,0,122,0,0,122,0,0,0,0,
0,0,0,0,122,0,0,122,0,0,0,0,
0,0,0,0,122,0,0,122,0,0,0,0,
0,0,0,0,122,0,0,122,0,0,0,0,
0,0,0,0,122,0,0,122,0,0,0,0,
0,0,0,0,122,0,0,122,0,0,0,0,
0,0,0,0,122,0,0,122,0,0,0,0,
0,0,0,0,122,0,0,122,0,0,0,0,
0,0,0,0,122,0,0,122,0,0,0,0,
0,0,0,0,122,0,0,122,0,0,0,0,
0,0,0,0,122,0,0,122,0,0,0,0,
0,0,0,0,122,0,0,122,0,0,0,0,
0,0,0,0,122,0,0,122,0,0,0,0,
0,0,0,0,122,0,0,122,0,0,0,0,
0,0,0,0,122,0,0,122,0,0,0,0,
0,0,0,0,122,0,0,122,0,0,0,0,
0,0,0,0,122,0,0,122,0,0,0,0
</data>
 </layer>
 <layer id="3" name="actions" width="12" height="24">
  <data encoding="csv">
0,0,0,0,0,0,0,0,0,0,0,0,
0,0,0,0,0,0,0,0,0,0,0,0,
0,0,0,0,0,0,0,0,0,0,0,0,
0,0,0,0,0,0,0,0,0,0,0,0,
0,0,0,0,0,0,0,0,0,0,0,0,
0,0,0,0,0,0,0,0,0,0,0,0,
0,0,0,0,0,0,0,0,0,0,0,0,
0,0,0,0,0,0,563,0,0,0,0,0,
0,0,0,0,0,0,0,0,0,0,0,0,
0,0,0,0,0,0,0,0,0,0,0,0,
0,0,0,0,0,562,562,0,0,0,0,0,
0,0,0,0,0,0,0,0,0,0,0,0,
0,0,0,0,0,0,0,0,0,0,0,0,
0,0,0,0,0,0,0,0,0,0,0,0,
0,0,0,0,0,0,0,0,0,0,0,0,
0,0,0,0,0,0,0,0,0,0,0,0,
0,0,0,0,0,0,0,0,0,0,0,0,
0,0,0,0,0,0,0,0,0,0,0,0,
0,0,0,0,0,0,0,0,0,0,0,0,
0,0,0,0,0,0,0,0,0,0,0,0,
0,0,0,0,0,0,0,0,0,0,0,0,
0,0,0,0,0,0,0,0,0,0,0,0,
0,0,0,0,0,0,0,0,0,0,0,0,
0,0,0,0,0,561,561,0,0,0,0,0
</data>
 </layer>
 <layer id="4" name="characters" width="12" height="24">
  <data encoding="csv">
0,0,0,0,0,0,0,0,0,0,0,0,
0,0,0,0,0,0,0,0,0,0,0,0,
0,0,0,0,0,0,0,0,0,0,0,0,
0,0,0,0,0,0,0,0,0,0,0,0,
0,0,0,0,0,0,314,0,0,0,0,0,
0,0,0,0,0,0,0,0,0,0,0,0,
0,0,0,0,0,0,0,0,0,0,0,0,
0,0,0,0,0,0,0,0,0,0,0,0,
0,0,0,0,0,0,0,0,0,0,0,0,
0,0,0,0,0,0,0,0,0,0,0,0,
0,0,0,0,0,0,0,0,0,0,0,0,
0,0,0,0,0,0,0,0,0,0,0,0,
0,0,0,0,0,0,0,0,0,0,0,0,
0,0,0,0,0,0,0,0,0,0,0,0,
0,0,0,0,0,0,0,0,0,0,0,0,
0,0,0,0,0,0,0,0,0,0,0,0,
0,0,0,0,0,0,0,0,0,0,0,0,
0,0,0,0,0,0,0,0,0,0,0,0,
0,0,0,0,0,0,0,0,0,0,0,0,
0,0,0,0,0,0,0,0,0,0,0,0,
0,0,0,0,0,0,0,0,0,0,0,0,
0,0,0,0,0,0,0,0,0,0,0,0,
0,0,0,0,0,0,0,0,0,0,0,0,
0,0,0,0,0,0,0,0,0,0,0,0
</data>
 </layer>
</map>
