<?xml version="1.0" encoding="UTF-8"?>
<map version="1.10" tiledversion="1.11.2" orientation="orthogonal" renderorder="right-down" width="15" height="20" tilewidth="32" tileheight="32" infinite="0" nextlayerid="8" nextobjectid="1">
 <tileset firstgid="1" source="../tilesets/castle01.tsx"/>
 <tileset firstgid="335" source="../tilesets/blue-labels.tsx"/>
 <layer id="1" name="decor" width="15" height="20">
  <data encoding="csv">
0,0,0,0,0,0,0,0,0,0,0,0,0,0,0,
0,0,0,0,0,0,0,0,0,0,0,0,0,0,0,
0,0,0,0,0,0,0,2,3,4,3,2,0,0,0,
154,154,154,154,154,0,2,1,4,3,4,1,2,0,0,
154,154,154,154,154,154,154,154,154,154,154,154,154,0,0,
154,113,115,115,115,115,117,154,0,0,0,154,154,0,0,
154,114,116,116,116,116,118,154,0,0,0,154,154,0,0,
154,154,154,154,154,154,154,154,317,320,323,154,154,0,0,
154,154,154,0,0,0,0,0,0,0,0,0,0,0,0,
154,154,154,0,0,0,0,0,0,0,0,0,0,0,0,
154,154,154,0,0,0,0,0,0,0,0,0,0,0,0,
154,154,154,0,0,0,0,0,0,0,0,0,0,0,0,
154,154,154,0,0,0,0,0,0,0,0,0,0,0,0,
154,154,154,0,0,0,0,0,0,0,0,0,0,0,0,
154,154,154,154,0,0,0,102,103,134,134,134,310,314,134,
154,154,325,154,0,0,0,134,134,134,134,134,134,134,134,
154,154,154,154,154,323,324,134,134,0,0,0,134,134,134,
154,154,154,154,154,154,154,134,134,0,0,0,134,134,134,
0,0,0,0,0,0,0,0,0,0,0,0,0,0,0,
0,0,0,0,0,0,0,0,0,0,0,0,0,0,0
</data>
 </layer>
 <layer id="4" name="colliders" width="15" height="20">
  <data encoding="csv">
25,25,25,25,25,50,11,3,27,30,33,3,5,60,0,
25,25,23,25,25,50,12,35,28,31,34,35,6,60,0,
26,26,24,26,26,50,13,0,0,0,0,0,7,60,0,
0,0,0,0,0,50,0,0,0,0,0,0,0,60,0,
0,0,0,0,0,0,0,0,0,0,0,0,0,60,0,
0,0,0,0,0,0,0,0,315,318,321,0,0,60,0,
0,0,0,0,0,0,0,0,316,319,322,0,0,60,0,
0,0,0,0,0,0,0,0,0,0,0,0,0,60,0,
0,0,0,19,25,25,25,25,25,25,25,25,25,25,0,
0,0,0,19,0,0,0,0,0,0,0,0,0,0,0,
0,0,0,19,0,0,0,0,0,0,0,0,0,0,0,
0,0,0,19,0,0,0,0,0,0,0,0,0,0,0,
0,0,0,19,295,299,303,25,25,25,23,25,308,312,25,
0,0,0,19,296,300,304,104,105,26,24,26,309,313,26,
0,0,0,0,297,301,305,0,0,0,0,0,0,0,0,
0,0,0,0,298,302,306,0,0,0,0,0,0,0,0,
0,0,0,0,0,0,0,0,0,121,123,125,0,0,0,
0,0,0,0,0,0,0,0,0,122,124,126,0,0,0,
0,0,0,0,0,0,0,0,0,0,0,0,0,0,0,
0,0,0,0,0,0,0,0,0,0,0,0,0,0,0
</data>
 </layer>
 <layer id="5" name="characters" width="15" height="20">
  <data encoding="csv">
0,0,0,0,0,0,0,0,0,0,0,0,0,0,0,
0,0,0,0,0,0,0,0,0,0,0,0,0,0,0,
0,0,0,0,0,0,0,0,0,0,0,0,0,0,0,
0,0,0,0,0,0,0,0,0,0,0,0,0,0,0,
0,0,0,0,0,0,0,0,0,0,0,0,0,0,0,
0,0,0,0,0,0,0,0,0,0,0,0,0,0,0,
0,0,0,0,0,0,0,0,0,0,0,0,0,0,0,
0,0,0,0,0,0,0,0,0,0,0,0,0,0,0,
0,0,0,0,0,0,0,0,0,0,0,0,0,0,0,
0,0,0,0,0,0,0,0,0,0,0,0,0,0,0,
0,0,0,0,0,0,0,0,0,0,0,0,0,0,0,
0,0,0,0,0,0,0,0,0,0,0,0,0,0,0,
0,0,0,0,0,0,0,0,0,0,0,0,0,0,0,
0,0,0,0,0,0,0,0,0,0,0,0,0,0,0,
0,0,0,0,0,0,0,0,0,0,0,0,0,0,0,
0,0,0,0,0,0,0,391,0,0,0,0,0,0,0,
0,0,0,0,0,0,0,0,0,0,0,0,0,0,0,
0,0,0,0,0,0,0,0,0,0,0,0,0,0,0,
0,0,0,0,0,0,0,0,0,0,0,0,0,0,0,
0,0,0,0,0,0,0,0,0,0,0,0,0,0,0
</data>
 </layer>
 <layer id="6" name="metadata" width="15" height="20">
  <data encoding="csv">
0,0,0,0,0,0,0,0,0,0,0,0,0,0,0,
0,0,0,0,0,0,0,0,0,0,0,0,0,0,0,
0,0,0,0,0,0,0,0,0,0,0,0,0,0,0,
0,0,0,0,0,0,0,0,0,0,0,0,0,0,0,
0,0,0,0,0,0,0,0,0,0,0,0,0,0,0,
0,0,0,0,0,0,0,0,0,0,0,0,0,0,0,
0,0,0,0,0,0,0,0,0,0,0,0,0,0,0,
0,0,0,0,0,0,0,0,0,0,0,0,0,0,0,
0,0,0,0,0,0,0,0,0,0,0,0,0,0,0,
0,0,0,0,0,0,0,0,0,0,0,0,0,0,0,
0,0,0,0,0,0,0,0,0,0,0,0,0,0,0,
0,0,0,0,0,0,0,0,0,0,0,0,0,0,0,
0,0,0,0,0,0,0,0,0,0,0,0,0,0,0,
0,0,0,0,0,0,0,0,0,0,0,0,0,0,0,
0,0,0,0,0,0,0,0,0,0,0,0,0,0,0,
0,0,0,0,0,0,0,0,0,0,0,0,0,0,0,
0,0,0,0,0,0,0,0,0,0,0,0,0,0,0,
0,0,0,0,0,0,0,0,0,0,0,0,0,0,0,
0,0,0,0,0,0,0,0,0,0,0,0,0,0,0,
0,0,0,0,0,0,0,0,0,0,0,0,0,0,0
</data>
 </layer>
 <layer id="7" name="actions" width="15" height="20">
  <data encoding="csv">
0,0,0,0,0,0,0,0,0,0,0,0,0,0,0,
0,0,0,0,0,0,0,0,0,0,0,0,0,0,0,
0,0,0,0,0,0,0,0,0,0,0,0,0,0,0,
0,0,626,0,0,0,0,0,0,0,0,0,0,0,0,
0,0,0,0,0,0,0,0,0,0,0,0,0,0,0,
0,0,0,0,0,0,0,0,0,0,0,0,0,0,0,
0,0,0,0,0,0,0,0,0,0,0,0,0,0,0,
0,0,0,0,0,0,0,0,0,0,0,0,0,0,0,
0,0,0,0,0,0,0,0,0,0,0,0,0,0,0,
0,0,0,0,0,0,0,0,0,0,0,0,0,0,0,
0,0,0,0,0,0,0,0,0,0,0,0,0,0,0,
0,0,0,0,0,0,0,0,0,0,0,0,0,0,0,
0,0,0,0,0,0,0,0,0,0,0,0,0,0,0,
0,0,0,0,0,0,0,0,0,0,0,0,0,0,0,
0,0,0,0,0,0,0,0,0,0,0,0,0,0,0,
0,0,0,0,0,0,0,642,642,0,0,0,0,0,0,
0,0,0,0,0,0,627,642,642,0,0,0,0,0,0,
0,0,0,0,0,0,627,0,0,0,0,0,0,0,0,
0,0,0,0,0,0,0,0,0,0,0,0,0,0,0,
0,0,0,0,0,0,0,0,0,0,0,0,0,0,0
</data>
 </layer>
</map>
