<?xml version="1.0" encoding="UTF-8"?>
<map version="1.10" tiledversion="1.11.2" orientation="orthogonal" renderorder="right-down" width="14" height="11" tilewidth="32" tileheight="32" infinite="0" nextlayerid="2" nextobjectid="1">
 <tileset firstgid="1" source="../tilesets/castle01.tsx"/>
 <layer id="1" name="Tile Layer 1" width="14" height="11">
  <data encoding="csv">
25,23,25,25,295,299,303,25,25,25,68,68,308,312,
26,24,26,21,296,300,304,104,105,26,68,68,309,313,
181,181,181,267,297,301,305,102,103,134,134,134,310,314,
154,154,154,154,298,302,306,134,134,121,123,125,134,134,
154,154,154,154,154,154,154,134,134,122,124,126,134,134,
315,318,321,154,154,154,154,154,154,154,154,154,154,154,
316,319,322,154,113,115,115,115,115,115,115,117,154,154,
317,320,323,154,114,116,116,116,116,116,116,118,154,154,
154,154,154,154,154,154,154,154,154,154,154,154,154,154,
0,0,0,0,0,0,0,0,0,0,0,0,0,0,
0,0,0,0,0,0,0,0,0,0,0,0,0,0
</data>
 </layer>
</map>
