<?xml version="1.0" encoding="UTF-8"?>
<map version="1.10" tiledversion="1.11.0" orientation="orthogonal" renderorder="right-down" width="17" height="16" tilewidth="32" tileheight="32" infinite="0" nextlayerid="7" nextobjectid="1">
 <tileset firstgid="1" source="../tilesets/underground02.tsx"/>
 <tileset firstgid="257" source="../tilesets/blue-labels.tsx"/>
 <layer id="2" name="decor" width="17" height="16">
  <data encoding="csv">
0,0,0,0,0,0,0,0,0,0,0,0,0,0,0,0,0,
0,1,1,1,1,12,14,12,12,0,0,0,0,0,26,28,0,
0,1,1,1,1,12,12,12,12,0,0,0,0,0,13,16,0,
0,4,1,0,0,12,12,24,12,0,0,0,0,0,13,16,0,
0,1,1,0,0,12,12,12,12,0,0,0,0,0,13,16,0,
0,1,1,0,0,12,11,12,12,0,0,0,0,0,13,16,0,
0,1,1,0,0,12,12,12,12,0,0,0,0,0,13,16,0,
0,1,1,0,0,0,0,0,0,0,0,0,0,0,13,16,0,
0,1,1,0,26,28,0,0,0,0,0,0,0,0,13,16,0,
0,1,1,1,1,1,1,1,0,0,0,0,0,0,13,16,0,
0,0,1,1,1,1,1,1,0,0,0,0,0,0,13,16,0,
0,0,1,4,1,1,1,1,0,0,0,0,0,0,13,16,0,
0,0,1,1,1,1,1,1,0,0,0,0,0,0,13,16,0,
0,77,77,77,77,77,77,77,77,77,77,77,77,77,77,77,0,
0,78,78,78,78,78,78,78,78,78,78,78,78,78,78,78,0,
0,0,0,0,0,0,0,0,0,0,0,0,0,0,0,0,0
</data>
 </layer>
 <layer id="1" name="colliders" width="17" height="16">
  <data encoding="csv">
32,32,32,32,32,32,32,32,32,10,7,0,0,38,25,27,36,
7,0,0,0,0,0,0,0,0,9,6,0,0,39,0,0,37,
6,0,0,0,0,0,0,0,0,9,6,0,0,40,0,0,38,
6,0,0,10,7,0,0,0,0,9,6,0,0,41,0,0,39,
6,0,0,9,6,0,0,0,0,9,6,0,0,42,0,0,40,
7,0,0,9,6,0,0,0,0,9,6,0,0,36,0,0,41,
6,0,0,8,5,0,0,0,0,8,6,47,50,37,0,0,42,
6,0,0,29,29,29,29,29,29,29,6,48,51,38,0,0,34,
7,0,0,30,30,30,30,30,30,30,6,49,52,39,0,0,35,
6,0,0,0,0,0,0,0,10,7,6,0,0,40,0,0,36,
6,7,0,0,0,0,0,0,9,6,6,0,0,41,0,0,37,
6,6,0,0,0,0,0,0,9,6,6,0,0,42,0,0,38,
7,6,0,0,0,0,0,0,9,6,6,81,81,34,0,0,39,
77,0,0,0,0,0,0,0,0,0,0,0,0,0,0,0,77,
78,0,0,0,0,0,0,0,0,0,0,0,0,0,0,0,78,
79,79,79,79,79,79,79,79,79,79,79,79,79,79,79,79,79
</data>
 </layer>
 <layer id="3" name="characters" width="17" height="16">
  <data encoding="csv">
0,0,0,0,0,0,0,0,0,0,0,0,0,0,0,0,0,
0,0,0,0,0,0,0,0,0,0,0,0,0,0,0,0,0,
0,0,0,0,0,0,0,0,0,0,0,0,0,0,265,265,0,
0,0,0,0,0,0,0,0,0,0,0,0,0,0,0,0,0,
0,0,0,0,0,0,0,0,280,0,0,0,0,0,0,0,0,
0,0,0,0,0,0,0,0,0,0,0,0,0,0,0,0,0,
0,0,0,0,0,0,0,0,264,0,0,0,0,0,0,0,0,
0,0,0,0,0,0,0,0,0,0,0,0,0,0,0,0,0,
0,0,0,0,0,0,0,0,0,0,0,0,0,0,0,0,0,
0,0,0,0,0,0,0,0,0,0,0,0,0,0,0,0,0,
0,0,0,0,0,0,0,0,0,0,0,0,0,0,0,0,0,
0,0,0,0,0,0,0,0,0,0,0,0,0,0,0,0,0,
0,0,0,0,0,0,0,0,0,0,0,0,0,0,0,0,0,
0,0,0,0,0,0,0,0,0,0,0,0,0,0,0,0,0,
0,0,0,0,0,0,0,0,0,0,0,0,0,0,0,0,0,
0,0,0,0,0,0,0,0,0,0,0,0,0,0,0,0,0
</data>
 </layer>
 <layer id="6" name="actions" width="17" height="16">
  <data encoding="csv">
0,0,0,0,0,0,0,0,0,0,0,0,0,0,0,0,0,
0,0,0,0,0,0,0,0,0,0,0,0,0,0,385,385,0,
0,0,0,0,0,0,0,0,0,0,0,0,0,0,0,0,0,
0,0,0,0,0,0,0,0,382,0,0,0,0,0,0,0,0,
0,0,0,0,0,0,0,382,0,0,0,0,0,0,0,0,0,
0,0,0,0,0,382,382,382,382,0,0,0,0,0,0,0,0,
0,0,0,0,0,0,0,0,0,0,0,0,0,0,0,0,0,
0,0,0,0,0,0,0,0,0,0,0,0,0,0,0,0,0,
0,0,0,0,0,0,0,0,0,0,0,0,0,0,0,0,0,
0,0,0,0,0,0,0,0,0,0,0,0,0,0,0,0,0,
0,0,0,0,0,0,0,0,0,0,0,0,0,0,0,0,0,
0,0,0,0,0,0,0,0,0,0,0,0,0,0,0,0,0,
0,0,0,0,381,0,0,0,0,0,0,0,0,0,0,0,0,
0,0,0,0,0,0,0,0,0,0,0,0,0,0,0,0,0,
0,0,0,0,0,0,0,0,0,0,0,0,0,0,0,0,0,
0,0,0,0,0,0,0,0,0,0,0,0,0,0,0,0,0
</data>
 </layer>
 <layer id="5" name="metadata" width="17" height="16">
  <data encoding="csv">
0,0,0,0,0,0,0,0,0,0,0,0,0,0,0,0,0,
0,0,0,0,0,0,0,0,0,0,0,0,0,0,0,0,0,
0,0,0,0,0,0,0,0,0,0,0,0,0,0,257,258,0,
0,0,0,0,0,0,0,0,0,0,0,0,0,0,0,0,0,
0,0,0,0,0,0,0,0,0,0,0,0,0,0,0,0,0,
0,0,0,0,0,0,0,0,0,0,0,0,0,0,0,0,0,
0,0,0,0,0,0,0,0,259,0,0,0,0,0,0,0,0,
0,0,0,0,0,0,0,0,0,0,0,0,0,0,0,0,0,
0,0,0,0,0,0,0,0,0,0,0,0,0,0,0,0,0,
0,0,0,0,0,0,0,0,0,0,0,0,0,0,0,0,0,
0,0,0,0,0,0,0,0,0,0,0,0,0,0,0,0,0,
0,0,0,0,0,0,0,0,0,0,0,0,0,0,0,0,0,
0,0,0,0,0,0,0,0,0,0,0,0,0,0,0,0,0,
0,0,0,0,0,0,0,0,0,0,0,0,0,0,0,0,0,
0,0,0,0,0,0,0,0,0,0,0,0,0,0,0,0,0,
0,0,0,0,0,0,0,0,0,0,0,0,0,0,0,0,0
</data>
 </layer>
</map>
