<?xml version="1.0" encoding="UTF-8"?>
<map version="1.10" tiledversion="1.11.2" orientation="orthogonal" renderorder="right-down" width="8" height="14" tilewidth="32" tileheight="32" infinite="0" nextlayerid="6" nextobjectid="1">
 <tileset firstgid="1" source="../tilesets/church01.tsx"/>
 <tileset firstgid="30" source="../tilesets/blue-labels.tsx"/>
 <layer id="1" name="decor" width="8" height="14">
  <data encoding="csv">
0,0,0,17,19,0,0,0,
0,0,0,0,0,0,0,0,
0,0,0,21,21,0,0,0,
0,0,0,0,0,0,0,0,
1,9,0,0,0,0,5,13,
2,10,0,23,23,0,6,14,
3,11,0,24,24,0,7,15,
4,12,0,23,23,0,8,16,
0,0,0,23,23,0,0,0,
1,9,0,24,23,0,5,13,
2,10,0,24,23,0,6,14,
3,11,0,24,23,0,7,15,
4,12,0,24,23,0,8,16,
0,0,0,24,24,0,0,0
</data>
 </layer>
 <layer id="2" name="colliders" width="8" height="14">
  <data encoding="csv">
17,19,29,0,0,29,17,19,
18,20,29,18,20,29,18,20,
0,0,0,0,0,0,0,0,
0,0,0,25,27,0,0,0,
0,0,0,26,28,0,0,0,
0,0,0,0,0,0,0,0,
0,0,0,0,0,0,0,0,
0,0,0,0,0,0,0,0,
0,0,0,0,0,0,0,0,
0,0,0,0,0,0,0,0,
0,0,0,0,0,0,0,0,
0,0,0,0,0,0,0,0,
0,0,0,0,0,0,0,0,
0,0,0,0,0,0,0,0
</data>
 </layer>
 <layer id="4" name="actions" width="8" height="14">
  <data encoding="csv">
0,0,0,0,0,0,0,0,
0,0,0,0,0,0,0,0,
0,0,0,0,0,0,0,0,
0,0,0,0,0,0,0,0,
0,0,0,0,0,0,0,0,
0,0,0,0,0,0,0,0,
0,0,0,0,0,0,0,0,
0,0,0,0,0,0,0,0,
0,0,0,0,0,0,0,0,
0,0,0,0,0,0,0,0,
0,0,0,0,0,0,0,0,
0,0,0,0,0,0,0,0,
0,0,0,0,0,0,0,0,
0,0,0,0,0,0,0,0
</data>
 </layer>
 <layer id="5" name="metadata" width="8" height="14">
  <data encoding="csv">
0,0,0,0,0,0,0,0,
0,0,0,0,0,0,0,0,
0,0,0,0,0,0,0,0,
0,0,0,0,0,0,0,0,
0,0,0,0,0,0,0,0,
0,0,0,0,0,0,0,0,
0,0,0,0,0,0,0,0,
0,0,0,0,0,0,0,0,
0,0,0,0,0,0,0,0,
0,0,0,0,0,0,0,0,
0,0,0,0,0,0,0,0,
0,0,0,0,0,0,0,0,
0,0,0,0,0,0,0,0,
0,0,0,0,0,0,0,0
</data>
 </layer>
 <layer id="3" name="characters" width="8" height="14">
  <data encoding="csv">
0,0,0,0,0,0,0,0,
0,0,97,0,0,96,0,0,
0,0,0,0,0,0,0,0,
0,0,98,0,0,98,0,0,
0,0,0,0,0,0,0,0,
0,0,0,0,0,0,0,0,
0,0,0,0,0,0,0,0,
0,0,0,0,0,0,0,0,
0,0,0,0,0,0,0,0,
0,0,0,0,0,0,0,0,
0,0,0,0,0,0,0,0,
0,0,0,0,0,0,0,0,
0,0,0,0,0,0,0,0,
0,0,0,0,0,0,0,0
</data>
 </layer>
</map>
