<?xml version="1.0" encoding="UTF-8"?>
<map version="1.10" tiledversion="1.11.2" orientation="orthogonal" renderorder="right-down" width="8" height="14" tilewidth="32" tileheight="32" infinite="0" nextlayerid="5" nextobjectid="1">
 <tileset firstgid="1" source="../tilesets/lab02.tsx"/>
 <tileset firstgid="129" source="../tilesets/blue-labels.tsx"/>
 <layer id="1" name="decor" width="8" height="14">
  <data encoding="csv">
0,0,0,0,0,0,0,0,
0,0,0,0,0,0,0,0,
0,48,48,48,48,48,48,0,
0,44,44,0,0,44,44,0,
81,45,87,0,0,45,87,51,
82,87,45,87,45,87,45,52,
83,47,47,47,47,47,47,53,
1,2,1,1,1,1,1,1,
1,1,1,1,1,1,1,1,
1,1,1,1,1,1,1,1,
1,1,1,1,1,1,1,1,
1,1,1,1,1,1,1,1,
1,1,1,1,1,1,1,1,
0,0,0,1,1,0,0,0
</data>
 </layer>
 <layer id="3" name="colliders" width="8" height="14">
  <data encoding="csv">
3,5,39,5,7,39,7,9,
4,6,40,6,8,40,8,10,
79,0,0,0,0,0,0,49,
80,0,0,25,25,0,0,50,
0,0,0,26,26,0,0,0,
0,0,0,0,0,0,0,0,
0,0,0,0,0,0,0,0,
0,0,0,0,0,0,0,0,
0,0,0,0,0,0,0,0,
0,0,0,0,0,0,0,0,
0,0,0,0,0,0,0,0,
0,0,0,0,0,0,0,0,
0,0,0,0,0,0,0,0,
48,48,48,0,0,48,48,48
</data>
 </layer>
 <layer id="2" name="characters" width="8" height="14">
  <data encoding="csv">
0,0,0,0,0,0,0,0,
0,0,0,0,0,0,0,0,
0,0,0,0,0,0,0,0,
0,0,0,0,0,0,0,0,
0,0,0,0,0,0,0,0,
0,0,0,209,0,0,0,0,
0,0,0,0,0,0,0,0,
0,0,0,0,0,0,0,0,
0,0,0,0,0,0,0,0,
0,0,0,0,0,0,0,0,
0,0,0,0,0,0,0,0,
0,0,0,0,0,0,0,0,
0,0,0,0,0,0,0,0,
0,0,0,0,0,0,0,0
</data>
 </layer>
 <layer id="4" name="actions" width="8" height="14">
  <data encoding="csv">
0,0,0,0,0,0,0,0,
0,0,0,0,0,0,0,0,
0,0,0,0,0,0,0,0,
0,0,0,0,0,0,0,0,
0,0,0,0,0,0,0,0,
0,0,490,0,490,0,0,0,
0,0,490,490,490,0,0,0,
0,0,0,0,0,0,0,0,
0,0,0,0,0,0,0,0,
0,0,0,0,0,0,0,0,
0,0,0,0,0,0,0,0,
0,0,0,0,0,0,0,0,
0,0,0,0,0,0,0,0,
0,0,0,460,460,0,0,0
</data>
 </layer>
</map>
