<?xml version="1.0" encoding="UTF-8"?>
<map version="1.10" tiledversion="1.11.2" orientation="orthogonal" renderorder="right-down" width="9" height="10" tilewidth="32" tileheight="32" infinite="0" nextlayerid="6" nextobjectid="1">
 <tileset firstgid="1" source="../tilesets/room03.tsx"/>
 <tileset firstgid="129" source="../tilesets/blue-labels.tsx"/>
 <layer id="1" name="decor" width="9" height="10">
  <data encoding="csv">
1,3,5,20,22,27,28,16,16,
2,4,6,21,23,25,25,17,17,
19,19,19,19,24,26,26,18,18,
19,19,121,33,37,41,45,19,19,
19,19,122,34,38,42,46,19,19,
19,19,123,35,39,43,47,19,19,
19,19,124,36,40,44,48,19,19,
7,7,49,50,50,50,51,7,7,
0,0,0,0,0,0,0,0,0,
0,0,0,0,0,0,0,0,0
</data>
 </layer>
 <layer id="3" name="actions" width="9" height="10">
  <data encoding="csv">
0,0,0,0,0,0,0,0,0,
0,0,0,0,0,0,0,0,0,
0,0,0,0,0,0,0,0,0,
0,0,0,0,0,407,0,0,0,
407,0,0,0,0,0,0,0,0,
0,0,0,0,0,0,0,0,0,
0,0,0,0,0,0,0,0,0,
0,0,0,0,0,0,0,0,0,
0,0,0,0,0,0,0,0,0,
0,0,0,0,0,0,0,0,0
</data>
 </layer>
 <layer id="4" name="metadata" width="9" height="10">
  <data encoding="csv">
0,0,0,0,0,0,0,0,0,
0,0,0,0,0,0,0,0,0,
0,0,0,0,0,0,0,0,0,
0,0,0,0,0,0,0,0,0,
0,0,0,0,0,0,0,0,0,
0,0,0,0,0,0,0,0,0,
0,0,0,0,0,0,0,0,0,
0,0,0,0,0,0,0,0,0,
0,0,0,0,0,0,0,0,0,
0,0,0,0,0,0,0,0,0
</data>
 </layer>
 <layer id="5" name="colliders" width="9" height="10">
  <data encoding="csv">
0,0,0,0,0,0,0,0,0,
0,0,0,0,0,0,0,0,0,
0,0,0,0,0,0,0,0,0,
0,0,0,0,0,0,0,0,0,
0,0,0,0,0,0,0,0,0,
0,0,0,0,0,0,0,0,0,
0,0,0,0,0,0,0,0,0,
0,0,0,0,0,0,0,0,0,
0,0,0,0,0,0,0,0,0,
0,0,0,0,0,0,0,0,0
</data>
 </layer>
 <layer id="2" name="characters" width="9" height="10">
  <data encoding="csv">
0,0,0,0,0,0,0,0,0,
0,0,0,0,0,0,0,0,0,
0,0,0,0,0,0,0,0,0,
0,0,0,0,0,180,0,0,0,
182,0,0,0,0,0,0,0,0,
0,0,0,0,0,0,0,0,0,
0,0,0,0,0,0,0,0,0,
0,0,0,0,0,0,0,0,0,
0,0,0,0,0,0,0,0,0,
0,0,0,0,0,0,0,0,0
</data>
 </layer>
</map>
