<?xml version="1.0" encoding="UTF-8"?>
<map version="1.10" tiledversion="1.11.2" orientation="orthogonal" renderorder="right-down" width="9" height="9" tilewidth="32" tileheight="32" infinite="0" nextlayerid="6" nextobjectid="1">
 <tileset firstgid="1" source="../tilesets/castle01.tsx"/>
 <tileset firstgid="335" source="../tilesets/blue-labels.tsx"/>
 <layer id="1" name="decor" width="9" height="9">
  <data encoding="csv">
0,0,0,0,0,19,2,1,2,
0,0,0,0,0,19,1,2,1,
0,0,0,0,0,19,2,1,2,
23,25,38,36,40,17,1,2,1,
24,26,39,37,41,22,2,1,2,
1,2,1,2,1,2,1,2,1,
2,1,2,1,2,1,2,1,2,
1,2,1,2,1,2,1,2,1,
25,25,25,25,25,25,25,25,25
</data>
 </layer>
 <layer id="2" name="colliders" width="9" height="9">
  <data encoding="csv">
0,0,0,0,0,0,0,0,0,
0,0,0,0,0,0,0,0,0,
0,0,0,0,0,0,0,0,0,
0,0,0,0,0,0,0,0,0,
0,0,0,0,0,0,0,0,0,
0,0,0,0,0,0,0,0,0,
0,0,0,0,0,0,0,0,0,
0,0,0,0,0,0,0,0,0,
0,0,0,0,0,0,0,0,0
</data>
 </layer>
 <layer id="3" name="characters" width="9" height="9">
  <data encoding="csv">
0,0,0,0,0,0,0,0,0,
0,0,0,0,0,0,0,0,0,
0,0,0,0,0,0,0,0,0,
0,0,0,0,0,0,0,0,0,
0,0,0,0,0,0,0,0,0,
0,0,0,0,0,0,0,375,390,
0,0,0,0,0,0,0,0,0,
0,0,0,0,0,0,0,0,0,
0,0,0,0,0,0,0,0,0
</data>
 </layer>
 <layer id="4" name="actions" width="9" height="9">
  <data encoding="csv">
0,0,0,0,0,0,0,0,0,
0,0,0,0,0,0,0,0,0,
0,0,0,0,0,0,0,0,0,
0,0,0,0,0,0,0,0,0,
0,0,0,0,0,0,0,0,0,
0,0,0,0,0,0,0,617,0,
0,0,0,0,0,0,0,0,0,
0,0,0,0,0,0,0,0,0,
0,0,0,0,0,0,0,0,0
</data>
 </layer>
 <layer id="5" name="metadata" width="9" height="9">
  <data encoding="csv">
0,0,0,0,0,0,0,0,0,
0,0,0,0,0,0,0,0,0,
0,0,0,0,0,0,0,0,0,
0,0,0,0,0,0,0,0,0,
0,0,0,0,0,0,0,0,0,
0,0,0,0,0,0,0,0,0,
0,0,0,0,0,0,0,0,0,
0,0,0,0,0,0,0,0,0,
0,0,0,0,0,0,0,0,0
</data>
 </layer>
</map>
