<?xml version="1.0" encoding="UTF-8"?>
<map version="1.10" tiledversion="1.11.2" orientation="orthogonal" renderorder="right-down" width="16" height="8" tilewidth="32" tileheight="32" infinite="0" nextlayerid="6" nextobjectid="1">
 <tileset firstgid="1" source="../tilesets/garbage-cave01.tsx"/>
 <tileset firstgid="73" source="../tilesets/blue-labels.tsx"/>
 <layer id="1" name="decor" width="16" height="8">
  <data encoding="csv">
0,0,0,0,0,0,0,0,0,0,0,0,0,0,0,0,
0,0,0,0,0,0,0,58,58,0,0,0,0,0,0,0,
0,39,39,39,39,39,52,39,33,27,29,37,39,39,39,0,
0,39,39,39,39,39,39,39,34,28,30,38,39,39,39,0,
0,39,39,39,39,39,39,39,39,32,31,39,39,39,39,0,
0,39,39,39,39,39,39,39,39,39,39,39,39,39,39,0,
0,39,39,39,39,39,39,39,39,39,39,39,39,39,39,0,
0,0,0,0,0,0,0,0,0,0,0,0,0,0,0,0
</data>
 </layer>
 <layer id="2" name="characters" width="16" height="8">
  <data encoding="csv">
0,0,0,0,0,0,0,0,0,0,0,0,0,0,0,0,
0,0,0,0,0,0,0,0,0,0,0,0,0,0,0,0,
0,0,0,0,0,0,0,126,0,0,0,0,0,0,0,0,
0,0,0,0,0,0,0,0,0,0,0,0,0,0,0,0,
0,0,0,0,0,0,0,0,0,0,0,0,0,0,0,0,
0,0,0,0,0,0,0,0,0,0,0,0,0,0,0,0,
0,0,0,0,0,0,0,124,0,0,0,0,0,0,0,0,
0,0,0,0,0,0,0,0,0,0,0,0,0,0,0,0
</data>
 </layer>
 <layer id="3" name="actions" width="16" height="8">
  <data encoding="csv">
0,0,0,0,0,0,0,0,0,0,0,0,0,0,0,0,
0,0,0,0,0,0,0,0,0,0,0,0,0,0,0,0,
0,0,0,0,0,0,0,352,0,0,0,0,0,0,0,0,
0,0,0,0,0,0,0,0,0,0,0,0,0,0,0,0,
0,0,0,0,0,0,0,0,0,0,0,0,0,0,0,0,
0,0,0,0,0,0,0,0,0,0,0,0,0,0,0,0,
0,0,0,0,0,0,0,0,0,0,0,0,0,0,0,0,
0,0,0,0,0,0,0,0,0,0,0,0,0,0,0,0
</data>
 </layer>
 <layer id="4" name="metadata" width="16" height="8">
  <data encoding="csv">
0,0,0,0,0,0,0,0,0,0,0,0,0,0,0,0,
0,0,0,0,0,0,0,0,0,0,0,0,0,0,0,0,
0,0,0,0,0,0,0,0,0,0,0,0,0,0,0,0,
0,0,0,0,0,0,0,0,0,0,0,0,0,0,0,0,
0,0,0,0,0,0,0,0,0,0,0,0,0,0,0,0,
0,0,0,0,0,0,0,0,0,0,0,0,0,0,0,0,
0,0,0,0,0,0,0,0,0,0,0,0,0,0,0,0,
0,0,0,0,0,0,0,0,0,0,0,0,0,0,0,0
</data>
 </layer>
 <layer id="5" name="colliders" width="16" height="8">
  <data encoding="csv">
59,2,2,2,2,2,2,69,68,14,16,2,2,2,2,57,
59,44,45,44,45,44,45,0,0,15,17,44,45,44,45,57,
59,0,0,0,0,0,0,0,0,0,0,0,0,0,0,57,
59,0,0,0,0,0,0,0,0,0,0,0,0,0,0,57,
59,0,0,0,0,0,0,0,0,0,0,0,0,0,0,57,
59,0,0,0,0,0,0,0,0,0,0,0,0,0,0,57,
59,0,0,0,0,0,0,0,0,0,0,0,0,0,0,57,
68,69,68,69,68,69,68,69,68,69,68,69,68,69,68,69
</data>
 </layer>
</map>
