<?xml version="1.0" encoding="UTF-8"?>
<map version="1.10" tiledversion="1.11.2" orientation="orthogonal" renderorder="right-down" width="9" height="6" tilewidth="32" tileheight="32" infinite="0" nextlayerid="5" nextobjectid="1">
 <tileset firstgid="1" source="../tilesets/lab02.tsx"/>
 <tileset firstgid="129" source="../tilesets/blue-labels.tsx"/>
 <layer id="1" name="decor" width="9" height="6">
  <data encoding="csv">
39,11,13,19,21,25,15,17,39,
40,12,14,6,6,26,16,18,40,
44,27,29,1,1,1,1,1,44,
45,28,30,1,1,1,1,1,45,
46,1,1,1,1,1,1,37,46,
47,1,1,1,1,1,1,38,47
</data>
 </layer>
 <layer id="2" name="colliders" width="9" height="6">
  <data encoding="csv">
0,0,0,0,0,0,0,0,0,
0,0,0,0,0,0,0,0,0,
0,0,0,0,0,0,0,0,0,
0,0,0,0,0,0,0,0,0,
0,0,0,0,0,0,0,0,0,
0,0,0,0,0,0,0,0,0
</data>
 </layer>
 <layer id="3" name="actions" width="9" height="6">
  <data encoding="csv">
0,0,0,0,0,0,0,0,0,
0,0,0,0,0,0,0,0,0,
0,0,0,0,0,0,0,0,0,
0,0,0,0,0,0,0,0,0,
0,0,0,0,0,0,0,0,0,
0,0,0,0,0,0,0,0,0
</data>
 </layer>
 <layer id="4" name="characters" width="9" height="6">
  <data encoding="csv">
0,0,0,0,0,0,0,0,0,
0,0,0,0,0,0,0,0,0,
0,0,0,0,0,0,180,0,0,
0,0,181,0,0,0,0,0,0,
0,0,0,0,0,0,0,0,0,
0,0,0,0,0,0,0,0,0
</data>
 </layer>
</map>
