<?xml version="1.0" encoding="UTF-8"?>
<map version="1.10" tiledversion="1.11.2" orientation="orthogonal" renderorder="right-down" width="8" height="4" tilewidth="32" tileheight="32" infinite="0" nextlayerid="6" nextobjectid="1">
 <tileset firstgid="1" source="../tilesets/cutscene_channel.tsx"/>
 <tileset firstgid="27" source="../tilesets/blue-labels.tsx"/>
 <layer id="1" name="colliders" width="8" height="4">
  <data encoding="csv">
0,0,1,5,9,13,17,21,
0,0,2,6,10,14,18,22,
0,0,3,7,11,15,19,23,
0,0,0,0,0,0,0,0
</data>
 </layer>
 <layer id="3" name="metadata" width="8" height="4">
  <data encoding="csv">
0,0,0,0,0,0,0,0,
0,0,0,0,0,0,0,0,
0,0,0,0,0,0,0,0,
0,0,0,0,0,0,0,0
</data>
 </layer>
 <layer id="4" name="characters" width="8" height="4">
  <data encoding="csv">
0,0,0,0,0,0,0,0,
0,0,0,0,0,0,0,0,
0,0,55,0,0,0,97,0,
0,0,0,0,0,0,0,0
</data>
 </layer>
 <layer id="5" name="decor" width="8" height="4">
  <data encoding="csv">
0,25,0,0,0,0,0,0,
0,26,0,0,0,0,0,0,
0,0,0,0,0,0,0,0,
0,0,0,0,0,0,0,0
</data>
 </layer>
 <layer id="2" name="actions" width="8" height="4">
  <data encoding="csv">
0,0,0,0,0,0,0,0,
0,0,0,0,0,0,0,0,
0,0,0,0,0,0,365,0,
0,0,0,0,0,0,0,0
</data>
 </layer>
</map>
