<?xml version="1.0" encoding="UTF-8"?>
<map version="1.10" tiledversion="1.11.2" orientation="orthogonal" renderorder="right-down" width="16" height="16" tilewidth="32" tileheight="32" infinite="0" nextlayerid="6" nextobjectid="1">
 <tileset firstgid="1" source="../tilesets/forest02_night.tsx"/>
 <tileset firstgid="321" source="../tilesets/blue-labels.tsx"/>
 <layer id="1" name="decor" width="16" height="16">
  <data encoding="csv">
0,0,0,0,0,0,0,0,0,0,0,0,0,0,0,0,
0,0,0,0,0,0,0,0,0,0,0,0,0,0,0,0,
0,0,0,0,0,0,0,0,0,0,0,0,0,0,0,0,
0,0,0,0,0,0,0,0,0,0,0,255,256,293,0,0,
0,0,0,0,0,0,0,0,0,0,0,249,252,0,0,0,
0,0,0,0,0,0,0,0,0,0,0,249,252,0,0,0,
0,0,0,0,0,0,0,0,0,0,0,249,252,0,0,0,
0,0,0,0,0,0,0,0,0,0,0,249,252,0,0,0,
0,0,0,0,0,0,0,0,0,0,0,249,252,0,0,0,
0,0,0,0,0,0,0,0,0,0,0,249,252,0,0,0,
0,0,0,0,0,0,0,0,0,0,0,249,252,0,0,0,
0,0,0,0,11,8,12,0,0,0,0,249,252,0,0,0,
0,0,0,0,7,71,5,0,0,0,0,249,252,0,0,0,
0,0,0,0,10,6,9,0,0,0,0,253,257,0,0,0,
0,0,0,0,0,0,0,0,0,0,0,0,0,0,0,0,
0,0,0,0,0,0,0,0,0,0,0,0,0,0,0,0
</data>
 </layer>
 <layer id="2" name="colliders" width="16" height="16">
  <data encoding="csv">
245,242,76,79,79,79,245,242,317,153,156,159,162,165,168,317,
245,242,77,80,80,80,245,242,318,154,157,160,163,166,169,318,
244,241,78,81,81,81,244,241,319,155,158,161,164,167,170,319,
32,46,42,46,42,46,42,46,42,46,0,0,0,0,42,34,
33,47,43,47,43,47,43,47,43,35,0,0,0,0,33,35,
32,48,44,48,44,48,44,48,44,34,0,0,0,0,32,34,
33,49,45,49,45,49,45,49,45,49,0,0,0,0,45,35,
32,46,42,46,42,46,42,46,42,46,0,0,0,0,42,34,
33,47,43,47,43,47,43,47,43,47,34,0,0,32,43,35,
32,48,44,48,44,48,44,48,44,48,35,0,0,33,44,34,
33,49,45,49,45,49,45,49,45,49,0,0,0,0,45,35,
116,0,0,0,0,0,0,0,0,0,0,0,0,0,42,34,
116,0,0,0,0,0,0,0,0,0,0,0,0,32,43,35,
116,0,0,0,0,0,0,0,0,0,0,0,0,33,44,34,
116,0,0,0,0,0,0,0,0,0,0,0,0,0,45,35,
32,34,32,34,32,34,32,34,32,34,32,34,32,34,42,46
</data>
 </layer>
 <layer id="3" name="actions" width="16" height="16" opacity="0.72">
  <data encoding="csv">
0,0,0,0,0,0,0,0,0,0,0,0,0,0,0,0,
0,0,0,0,0,0,0,0,0,0,0,0,0,0,0,0,
0,0,0,0,0,0,0,0,0,0,0,0,0,0,0,0,
0,0,0,0,0,0,0,0,0,0,0,489,489,0,0,0,
0,0,0,0,0,0,0,0,0,0,693,0,0,0,0,0,
0,0,0,0,0,0,0,0,0,0,0,0,0,0,0,0,
0,0,0,0,0,0,0,0,0,0,0,0,0,0,0,0,
0,0,0,0,0,0,0,0,0,0,0,0,0,0,0,0,
0,0,0,0,0,0,0,0,0,0,0,0,0,0,0,0,
0,0,0,0,0,0,0,0,0,0,0,0,0,0,0,0,
0,0,0,0,0,0,0,0,0,0,0,0,0,0,0,0,
0,0,0,0,0,0,0,0,0,0,0,0,0,0,0,0,
0,0,0,0,0,692,0,0,0,0,0,0,0,0,0,0,
0,0,0,0,0,0,0,0,0,0,0,0,0,0,0,0,
0,0,0,0,0,0,0,0,0,0,0,0,0,0,0,0,
0,0,0,0,0,0,0,0,0,0,0,0,0,0,0,0
</data>
 </layer>
 <layer id="4" name="metadata" width="16" height="16">
  <data encoding="csv">
0,0,0,0,0,0,0,0,0,0,0,0,0,0,0,0,
0,0,0,0,0,0,0,0,0,0,0,0,0,0,0,0,
0,0,0,0,0,0,0,0,0,0,0,0,0,0,0,0,
0,0,0,0,0,0,0,0,0,0,0,0,0,0,0,0,
0,0,0,0,0,0,0,0,0,0,0,0,0,0,0,0,
0,0,0,0,0,0,0,0,0,0,0,0,0,0,0,0,
0,0,0,0,0,0,0,0,0,0,0,0,0,0,0,0,
0,0,0,0,0,0,0,0,0,0,0,0,0,0,0,0,
0,0,0,0,0,0,0,0,0,0,0,0,0,0,0,0,
0,0,0,0,0,0,0,0,0,0,0,0,0,0,0,0,
0,0,0,0,0,0,0,0,0,0,0,0,0,0,0,0,
0,0,0,0,0,0,0,0,0,0,0,0,0,0,0,0,
0,0,0,0,0,0,0,0,0,0,0,0,0,0,0,0,
0,0,0,0,0,0,0,0,0,0,0,0,0,0,0,0,
0,0,0,0,0,0,0,0,0,0,0,0,0,0,0,0,
0,0,0,0,0,0,0,0,0,0,0,0,0,0,0,0
</data>
 </layer>
 <layer id="5" name="characters" width="16" height="16">
  <data encoding="csv">
0,0,0,0,0,0,0,0,0,0,0,0,0,0,0,0,
0,0,0,0,0,0,0,0,0,0,0,0,0,0,0,0,
0,0,0,0,0,0,0,0,0,0,0,0,0,0,0,0,
0,0,0,0,0,0,0,0,0,0,64,0,0,0,0,0,
0,0,0,0,0,0,0,0,0,0,0,0,0,0,0,0,
0,0,0,0,0,0,0,0,0,0,0,0,0,0,0,0,
0,0,0,0,0,0,0,0,0,0,0,0,0,0,0,0,
0,0,0,0,0,0,0,0,0,0,0,0,0,0,0,0,
0,0,0,0,0,0,0,0,0,0,0,0,0,0,0,0,
0,0,0,0,0,0,0,0,0,0,0,0,0,0,0,0,
0,0,0,0,0,0,0,0,0,0,0,0,0,0,0,0,
0,0,0,0,0,0,0,0,0,0,0,0,0,0,0,0,
0,0,0,0,0,0,0,0,0,0,0,0,0,0,0,0,
0,0,0,0,0,0,0,0,0,0,0,0,0,0,0,0,
0,0,0,0,0,0,0,0,0,0,0,0,0,0,0,0,
0,0,0,0,0,0,0,0,0,0,0,0,0,0,0,0
</data>
 </layer>
</map>
