<?xml version="1.0" encoding="UTF-8"?>
<map version="1.10" tiledversion="1.11.0" orientation="orthogonal" renderorder="right-down" width="16" height="32" tilewidth="32" tileheight="32" infinite="0" nextlayerid="6" nextobjectid="1">
 <tileset firstgid="1" source="../tilesets/forest02_night.tsx"/>
 <tileset firstgid="321" source="../tilesets/blue-labels.tsx"/>
 <tileset firstgid="2369" source="../tilesets/forest01_night.tsx"/>
 <layer id="1" name="colliders" width="16" height="32">
  <data encoding="csv">
0,42,46,42,46,42,46,42,46,0,0,0,33,35,0,0,
32,43,47,43,47,43,47,43,47,34,32,34,2399,0,32,34,
33,44,48,44,48,44,48,44,48,35,33,35,31,31,33,35,
34,42,46,45,49,45,49,45,49,0,0,31,2399,31,0,0,
35,43,47,34,0,0,0,0,0,0,0,0,0,0,0,0,
34,44,48,35,0,0,0,0,0,0,0,0,0,0,0,42,
35,45,49,32,34,0,0,0,0,0,32,34,0,0,32,43,
34,42,46,33,35,32,34,0,0,0,33,35,0,32,48,44,
35,43,47,34,0,33,35,0,0,0,0,32,34,33,49,45,
34,44,48,35,0,0,0,0,0,0,0,33,35,32,46,42,
35,45,49,0,0,32,34,0,0,0,0,0,0,33,47,43,
34,42,46,0,0,33,35,0,0,0,0,0,0,32,48,44,
35,43,47,34,0,0,0,0,0,0,0,0,0,33,49,45,
34,44,48,35,0,0,0,0,0,32,34,0,0,32,46,42,
35,45,49,0,0,0,0,0,0,33,35,0,0,33,47,43,
34,42,46,0,0,0,0,0,0,0,0,0,0,32,48,44,
35,43,47,34,0,0,0,0,0,0,0,0,0,33,49,45,
34,44,48,35,0,0,0,0,0,0,0,0,0,32,46,42,
35,45,49,0,0,0,0,32,34,0,0,0,0,33,47,43,
34,42,46,0,0,0,0,33,35,0,0,0,0,32,48,44,
35,43,47,34,0,0,0,0,0,0,0,0,0,33,49,45,
34,44,48,35,0,0,0,0,0,0,0,0,0,32,46,42,
35,45,49,0,0,32,34,0,0,0,0,0,0,33,47,43,
34,42,46,0,0,33,35,0,0,0,0,0,0,32,48,44,
35,43,47,34,0,0,0,0,0,0,0,0,0,33,49,45,
34,44,48,35,0,0,0,0,0,0,0,0,0,32,46,42,
35,45,49,32,34,0,0,0,0,0,0,0,0,33,47,43,
34,42,46,33,35,0,0,0,0,0,0,0,0,32,48,44,
35,33,35,0,0,0,0,0,0,0,0,0,0,33,49,45,
0,0,0,0,0,0,0,0,0,0,32,34,32,46,42,34,
0,0,0,0,0,0,0,0,0,0,33,35,33,47,43,35,
0,0,0,0,0,0,0,0,0,0,0,0,32,48,44,34
</data>
 </layer>
 <layer id="2" name="decor" width="16" height="32">
  <data encoding="csv">
0,0,0,0,0,0,0,0,0,0,0,0,0,0,0,0,
0,0,0,0,0,0,0,0,0,0,0,0,0,0,0,0,
0,0,0,0,0,0,0,0,0,0,0,0,0,0,0,0,
0,0,0,0,0,0,0,0,0,0,0,0,0,0,0,0,
0,0,0,0,0,0,0,0,0,0,0,0,0,0,0,0,
0,0,0,0,0,0,0,0,0,0,0,0,0,0,0,0,
0,0,0,0,0,0,0,0,0,0,0,0,0,0,0,0,
0,0,0,0,0,0,0,0,0,0,0,0,0,0,0,0,
0,0,0,0,0,0,0,0,0,320,0,0,0,0,0,0,
0,0,0,0,0,0,0,0,320,0,0,0,0,0,0,0,
0,0,0,0,0,0,0,0,0,320,0,0,0,0,0,0,
0,0,0,0,0,0,0,0,320,293,0,0,0,0,0,0,
0,0,0,0,0,0,0,0,0,0,0,0,0,0,0,0,
0,0,0,0,0,0,293,320,0,0,0,0,0,0,0,0,
0,0,0,0,0,320,0,0,0,0,0,0,0,0,0,0,
0,0,0,0,0,0,320,293,0,0,0,0,0,0,0,0,
0,0,0,0,0,0,0,0,0,320,0,0,0,0,0,0,
0,0,0,0,0,0,0,0,320,293,320,0,0,0,0,0,
0,0,0,0,0,0,0,0,0,0,0,0,0,0,0,0,
0,0,0,0,0,0,0,0,0,0,0,320,0,0,0,0,
0,0,0,0,0,0,0,0,0,0,320,0,0,0,0,0,
0,0,0,0,0,0,0,0,0,0,293,0,0,0,0,0,
0,0,0,0,0,0,0,0,0,0,0,0,0,0,0,0,
0,0,0,0,0,0,0,0,0,0,0,320,0,0,0,0,
0,0,0,0,0,0,0,0,0,293,320,0,0,0,0,0,
0,0,0,0,0,0,0,0,0,0,0,0,0,0,0,0,
0,0,0,0,0,0,0,0,0,0,0,320,0,0,0,0,
0,0,0,0,0,0,0,0,0,293,0,0,0,0,0,0,
0,0,0,0,0,0,0,0,320,0,0,0,0,0,0,0,
0,0,0,0,0,0,0,0,0,0,0,0,0,0,0,0,
0,0,320,293,0,0,320,293,0,0,0,0,0,0,0,0,
0,0,0,320,0,0,0,0,0,0,0,0,0,0,0,0
</data>
 </layer>
 <layer id="3" name="metadata" width="16" height="32">
  <data encoding="csv">
0,0,0,0,0,0,0,0,0,0,0,0,0,0,0,0,
0,0,0,0,0,0,0,0,0,0,0,0,0,0,0,0,
0,0,0,0,0,0,0,0,0,0,0,0,0,0,0,0,
0,0,0,0,0,0,0,0,0,0,0,0,0,0,0,0,
0,0,0,0,0,0,0,0,0,0,0,0,0,0,0,0,
0,0,0,0,0,0,0,0,0,0,0,0,0,0,0,0,
0,0,0,0,0,0,0,0,0,0,0,0,0,0,0,0,
0,0,0,0,0,0,0,0,0,0,0,0,0,0,0,0,
0,0,0,0,0,0,0,0,0,0,0,0,0,0,0,0,
0,0,0,0,0,0,0,0,0,0,0,0,0,0,0,0,
0,0,0,0,0,0,0,0,0,0,0,0,0,0,0,0,
0,0,0,0,0,0,0,0,0,0,0,0,0,0,0,0,
0,0,0,0,0,0,0,0,0,0,0,0,0,0,0,0,
0,0,0,0,0,0,0,0,0,0,0,0,0,0,0,0,
0,0,0,0,0,0,0,0,0,0,0,0,0,0,0,0,
0,0,0,0,0,0,0,0,0,0,0,0,0,0,0,0,
0,0,0,0,0,0,0,0,0,0,0,0,0,0,0,0,
0,0,0,0,0,0,0,0,0,0,0,0,0,0,0,0,
0,0,0,0,0,0,0,0,0,0,0,0,0,0,0,0,
0,0,0,0,0,0,0,0,0,0,0,0,0,0,0,0,
0,0,0,0,0,0,0,0,0,0,0,0,0,0,0,0,
0,0,0,0,0,0,0,0,0,0,0,0,0,0,0,0,
0,0,0,0,0,0,0,0,0,0,0,0,0,0,0,0,
0,0,0,0,0,0,0,0,0,0,0,0,0,0,0,0,
0,0,0,0,0,0,0,0,0,0,0,0,0,0,0,0,
0,0,0,0,0,0,0,0,0,0,0,0,0,0,0,0,
0,0,0,0,0,0,0,0,0,0,0,0,0,0,0,0,
0,0,0,0,0,0,0,0,0,0,0,0,0,0,0,0,
0,0,0,0,0,0,0,0,0,0,0,0,0,0,0,0,
0,0,0,0,0,0,0,0,0,0,0,0,0,0,0,0,
0,0,0,0,0,0,0,0,0,0,0,0,0,0,0,0,
0,0,0,0,0,0,0,0,0,0,0,0,0,0,0,0
</data>
 </layer>
 <layer id="4" name="actions" width="16" height="32">
  <data encoding="csv">
0,0,0,0,0,0,0,0,0,0,0,0,0,0,0,0,
0,0,0,0,0,0,0,0,0,0,0,0,0,0,0,0,
0,0,0,0,0,0,0,0,0,0,0,0,0,0,0,0,
0,0,0,0,0,0,0,0,0,0,484,0,0,0,0,485,
0,0,0,0,0,0,0,0,0,0,484,0,0,0,0,485,
0,0,0,0,0,0,0,0,0,0,484,0,0,0,0,0,
0,0,0,0,0,0,0,0,0,0,0,0,0,0,0,0,
0,0,0,0,0,0,0,0,0,0,0,0,0,0,0,0,
0,0,0,0,0,0,0,0,0,0,0,0,0,0,0,0,
0,0,0,0,0,0,0,0,0,0,0,0,0,0,0,0,
0,0,0,0,0,0,0,0,0,0,0,0,0,0,0,0,
0,0,0,0,0,0,0,0,0,0,0,0,0,0,0,0,
0,0,0,0,0,0,0,0,0,0,0,0,0,0,0,0,
0,0,0,0,0,0,0,0,0,0,0,0,0,0,0,0,
0,0,0,0,0,0,0,0,0,0,0,0,0,0,0,0,
0,0,0,0,0,0,0,0,0,0,0,0,0,0,0,0,
0,0,0,0,0,0,0,0,0,0,0,0,0,0,0,0,
0,0,0,0,0,0,0,0,0,0,0,0,0,0,0,0,
0,0,0,0,0,0,0,0,0,0,0,0,0,0,0,0,
0,0,0,0,0,0,0,0,0,0,0,0,0,0,0,0,
0,0,0,0,0,0,0,0,0,0,0,0,0,0,0,0,
0,0,0,0,0,0,0,0,0,0,0,0,0,0,0,0,
0,0,0,0,0,0,0,0,0,0,0,0,0,0,0,0,
0,0,0,0,0,0,0,0,0,0,0,0,0,0,0,0,
0,0,0,0,0,0,0,0,0,0,0,0,0,0,0,0,
0,0,0,0,0,0,0,0,0,0,0,0,0,0,0,0,
0,0,0,0,0,0,0,0,0,0,0,0,0,0,0,0,
0,0,0,0,0,0,0,0,0,0,0,0,0,0,0,0,
0,0,0,0,0,0,0,0,0,0,0,0,0,0,0,0,
0,483,0,0,0,0,0,0,0,0,0,0,0,0,0,0,
0,483,0,0,0,0,0,0,0,0,0,0,0,0,0,0,
0,483,0,0,0,0,0,0,0,0,0,0,0,0,0,0
</data>
 </layer>
 <layer id="5" name="characters" width="16" height="32">
  <data encoding="csv">
0,0,0,0,0,0,0,0,0,0,0,0,0,0,0,0,
0,0,0,0,0,0,0,0,0,0,0,0,0,0,0,0,
0,0,0,0,0,0,0,0,0,0,0,0,0,0,0,0,
0,0,0,0,0,0,0,0,0,0,0,0,346,0,0,0,
0,0,0,0,0,0,0,0,0,0,0,0,345,0,0,0,
0,0,0,0,0,0,0,0,0,0,0,0,0,0,0,0,
0,0,0,0,0,0,0,0,0,0,0,0,0,0,0,0,
0,0,0,0,0,0,0,0,0,0,0,0,0,0,0,0,
0,0,0,0,0,0,0,0,0,0,0,0,0,0,0,0,
0,0,0,0,0,0,0,0,0,0,0,0,0,0,0,0,
0,0,0,0,0,0,0,0,0,0,0,0,0,0,0,0,
0,0,0,0,0,0,0,0,0,0,0,0,0,0,0,0,
0,0,0,0,0,0,0,0,0,0,0,0,0,0,0,0,
0,0,0,0,0,0,0,0,0,0,0,0,0,0,0,0,
0,0,0,0,0,0,0,0,0,0,0,0,0,0,0,0,
0,0,0,0,0,0,0,0,0,0,0,0,0,0,0,0,
0,0,0,0,0,0,0,0,0,0,0,0,0,0,0,0,
0,0,0,0,0,0,0,0,0,0,0,0,0,0,0,0,
0,0,0,0,0,0,0,0,0,0,0,0,0,0,0,0,
0,0,0,0,0,0,0,0,0,0,0,0,0,0,0,0,
0,0,0,0,0,0,0,0,0,0,0,0,0,0,0,0,
0,0,0,0,0,0,0,0,0,0,0,0,0,0,0,0,
0,0,0,0,0,0,0,0,0,0,0,0,0,0,0,0,
0,0,0,0,0,0,0,0,0,0,0,0,0,0,0,0,
0,0,0,0,0,0,0,0,0,0,0,0,0,0,0,0,
0,0,0,0,0,0,0,0,0,0,0,0,0,0,0,0,
0,0,0,0,0,0,0,0,0,0,0,0,0,0,0,0,
0,0,0,0,0,0,0,0,0,0,0,0,0,0,0,0,
0,0,0,0,0,0,0,0,0,0,0,0,0,0,0,0,
0,0,0,0,0,0,0,0,0,0,0,0,0,0,0,0,
0,0,0,0,0,0,0,0,0,0,0,0,0,0,0,0,
0,0,0,0,0,0,0,0,0,0,0,0,0,0,0,0
</data>
 </layer>
</map>
