<?xml version="1.0" encoding="UTF-8"?>
<map version="1.10" tiledversion="1.11.2" orientation="orthogonal" renderorder="right-down" width="6" height="12" tilewidth="32" tileheight="32" infinite="0" nextlayerid="6" nextobjectid="1">
 <tileset firstgid="1" source="../tilesets/tavern01.tsx"/>
 <tileset firstgid="65" source="../tilesets/blue-labels.tsx"/>
 <layer id="1" name="decor" width="6" height="12">
  <data encoding="csv">
0,0,0,0,0,0,
0,19,19,19,19,0,
0,20,0,0,20,0,
0,21,21,21,21,0,
0,21,21,21,21,0,
0,19,19,19,19,0,
0,20,59,20,20,0,
0,21,21,21,21,0,
0,19,19,19,19,0,
0,20,20,60,20,0,
0,21,21,21,21,0,
0,0,0,0,0,0
</data>
 </layer>
 <layer id="2" name="colliders" width="6" height="12">
  <data encoding="csv">
13,8,8,8,8,13,
6,0,0,0,0,7,
6,0,22,23,0,7,
6,0,0,0,0,7,
6,0,0,0,0,7,
6,0,0,0,0,7,
4,0,0,0,0,5,
6,0,0,0,0,7,
6,0,0,0,0,7,
6,0,0,0,0,7,
6,0,0,0,0,7,
3,3,0,0,3,3
</data>
 </layer>
 <layer id="3" name="actions" width="6" height="12">
  <data encoding="csv">
0,0,0,0,0,0,
0,61,62,215,0,0,
0,215,0,0,0,0,
0,0,0,0,0,0,
0,0,0,0,0,0,
0,0,0,0,0,0,
0,0,0,0,0,0,
0,0,0,0,0,0,
0,0,0,0,0,0,
0,216,216,216,216,0,
0,0,0,0,0,0,
0,0,214,214,0,0
</data>
 </layer>
 <layer id="4" name="metadata" width="6" height="12">
  <data encoding="csv">
0,0,0,0,0,0,
0,0,0,0,0,0,
0,0,0,0,0,0,
0,0,0,0,0,0,
0,0,0,0,0,0,
0,0,0,0,0,0,
0,0,0,0,0,0,
0,0,0,0,0,0,
0,0,0,0,0,0,
0,0,0,0,0,0,
0,0,0,0,0,0,
0,0,0,0,0,0
</data>
 </layer>
 <layer id="5" name="characters" width="6" height="12">
  <data encoding="csv">
0,0,0,0,0,0,
0,0,0,0,0,0,
0,0,0,0,0,0,
0,0,0,0,0,0,
0,0,0,0,0,0,
0,0,0,0,0,0,
0,0,0,0,0,0,
0,0,0,0,0,0,
0,0,0,0,0,0,
0,0,0,0,0,0,
0,0,0,0,0,0,
0,0,0,0,0,0
</data>
 </layer>
</map>
