<?xml version="1.0" encoding="UTF-8"?>
<map version="1.10" tiledversion="1.11.2" orientation="orthogonal" renderorder="right-down" width="24" height="26" tilewidth="32" tileheight="32" infinite="0" nextlayerid="6" nextobjectid="1">
 <tileset firstgid="1" source="../tilesets/forest01_night.tsx"/>
 <tileset firstgid="321" source="../tilesets/blue-labels.tsx"/>
 <layer id="1" name="decor" width="24" height="26">
  <data encoding="csv">
72,74,76,79,0,7,5,0,0,0,0,0,0,7,5,0,79,79,0,7,5,0,79,79,
73,75,77,80,0,7,5,0,0,0,0,0,0,7,5,0,80,80,0,7,5,0,80,80,
0,0,0,0,0,7,5,0,0,0,0,94,0,7,5,0,0,0,0,7,5,0,0,0,
0,0,1,1,11,16,13,8,12,0,0,11,8,16,13,8,8,8,8,16,13,12,0,0,
0,0,1,1,10,15,14,6,9,0,0,10,6,15,14,6,6,6,6,15,14,9,0,0,
0,0,0,0,0,7,5,0,0,0,0,0,0,10,9,0,0,0,0,7,5,0,0,0,
0,0,1,0,0,7,5,0,21,21,21,21,0,1,1,0,21,21,0,7,5,0,21,21,
0,11,8,12,0,7,5,0,0,0,0,0,0,1,1,0,21,21,0,7,5,0,21,21,
0,7,2,5,0,7,5,0,0,11,12,0,0,0,0,0,0,0,0,7,5,0,21,21,
0,7,2,5,66,7,5,0,0,7,5,65,66,66,66,66,66,66,67,7,5,0,21,21,
0,10,6,9,0,7,5,0,0,7,5,0,0,0,0,0,21,21,0,7,5,0,21,21,
0,1,1,1,0,7,5,0,0,7,5,0,21,21,21,0,21,21,0,10,9,0,21,21,
0,1,1,1,0,7,5,65,67,7,5,0,74,21,21,0,0,0,0,1,1,0,21,21,
0,0,0,0,0,7,5,0,0,7,13,0,0,0,0,0,7,5,0,1,1,0,21,21,
21,21,21,21,0,7,5,0,0,7,14,53,51,65,66,67,7,5,0,1,1,0,21,21,
21,21,21,21,0,7,5,0,0,7,5,0,0,0,0,0,10,9,0,1,1,0,21,21,
21,21,21,21,0,7,5,65,67,7,5,65,67,7,5,0,1,1,0,1,1,0,21,21,
21,21,21,21,0,7,5,0,0,10,9,0,0,7,5,0,0,0,0,11,12,0,21,21,
21,21,21,21,0,7,5,0,0,1,1,0,0,7,5,65,66,66,67,7,5,0,21,21,
21,21,21,21,0,7,5,0,0,1,1,0,0,7,5,0,0,0,0,7,5,0,21,21,
21,21,21,21,0,10,9,0,0,0,0,0,0,10,9,0,21,21,0,10,9,0,21,21,
21,21,21,21,0,1,1,0,0,0,0,0,0,1,1,0,21,21,0,1,1,0,21,21,
21,21,21,21,0,1,1,65,66,66,66,66,67,1,1,0,21,21,0,1,1,0,21,21,
21,21,21,21,0,0,0,0,0,0,0,0,0,0,0,0,21,21,0,0,0,0,21,21,
0,0,0,0,0,0,0,0,0,0,0,0,0,0,0,0,0,0,0,0,0,0,0,0,
0,0,0,0,0,0,0,0,0,0,0,0,0,0,0,0,0,0,0,0,0,0,0,0
</data>
 </layer>
 <layer id="5" name="colliders" width="24" height="26" opacity="0.68">
  <data encoding="csv">
0,0,0,0,79,0,0,76,80,80,80,79,79,0,0,79,0,0,79,0,0,79,0,0,
0,0,0,0,80,0,0,77,80,80,80,80,80,0,0,80,0,0,80,0,0,80,0,0,
1,1,78,81,81,0,0,78,81,81,81,81,81,0,0,81,81,81,81,0,0,81,81,81,
32,34,0,0,0,0,0,0,0,32,34,0,0,0,0,0,0,0,0,0,0,0,32,34,
33,35,0,0,0,0,0,0,0,33,35,0,0,0,0,0,0,0,0,0,0,0,33,35,
82,82,82,82,82,0,0,82,82,82,82,82,82,0,0,82,82,82,82,0,0,82,82,82,
21,61,0,62,21,0,0,21,0,0,0,0,21,0,0,21,0,0,21,0,0,21,0,0,
21,0,0,0,21,0,0,21,21,61,62,21,21,0,0,21,0,0,21,0,0,21,0,0,
21,0,0,0,21,0,0,21,21,0,0,21,21,18,18,21,21,21,21,0,0,21,0,0,
21,0,0,0,0,0,0,21,21,0,0,0,0,0,0,0,0,0,0,0,0,21,0,0,
21,0,0,0,21,0,0,21,21,0,0,21,21,21,21,21,21,21,21,0,0,21,0,0,
21,0,0,0,21,0,0,21,21,0,0,21,0,21,21,21,21,21,21,0,0,21,0,0,
21,0,0,0,21,0,0,0,0,0,0,72,0,21,21,21,61,62,21,0,0,21,0,0,
21,18,18,18,21,0,0,21,21,0,0,73,75,21,21,21,0,0,21,0,0,21,0,0,
0,0,0,0,21,0,0,21,21,0,0,0,0,0,0,0,0,0,21,0,0,21,0,0,
0,0,0,0,21,0,0,21,21,0,0,21,21,61,62,21,0,0,21,0,0,21,0,0,
0,0,0,0,21,0,0,0,0,0,0,0,0,0,0,21,0,0,21,0,0,21,0,0,
0,0,0,0,21,0,0,21,21,0,0,21,21,0,0,21,18,18,21,0,0,21,0,0,
0,0,0,0,21,0,0,21,21,0,0,21,21,0,0,0,0,0,0,0,0,21,0,0,
0,0,0,0,21,0,0,21,21,0,0,21,21,0,0,21,21,21,21,0,0,21,0,0,
0,0,0,0,21,0,0,21,21,18,18,21,21,0,0,21,0,0,21,0,0,21,0,0,
0,0,0,0,21,0,0,21,21,21,21,21,21,0,0,21,0,0,21,0,0,21,0,0,
0,0,0,0,21,0,0,0,0,0,0,0,0,0,0,21,0,0,21,0,0,21,0,0,
0,0,0,0,21,18,18,29,29,29,29,29,29,18,18,21,0,0,21,18,18,21,0,0,
0,0,0,0,0,0,0,0,0,0,0,0,0,0,0,0,0,0,0,0,0,0,0,0,
0,0,0,0,0,0,0,0,0,0,0,0,0,0,0,0,0,0,0,0,0,0,0,0
</data>
 </layer>
 <layer id="2" name="characters" width="24" height="26" opacity="0.63">
  <data encoding="csv">
0,0,0,0,0,0,0,0,0,0,0,0,0,0,0,0,0,0,0,0,0,0,0,0,
0,0,0,0,0,0,0,0,0,0,0,0,0,0,0,0,0,0,0,0,0,0,0,0,
0,0,0,0,0,0,0,0,0,0,0,0,0,0,0,0,0,0,0,0,0,0,0,0,
0,0,0,0,0,0,0,0,0,0,0,0,0,0,0,0,0,0,0,0,0,0,0,0,
0,0,0,0,0,0,0,0,0,0,0,0,0,0,0,0,0,0,0,0,0,0,0,0,
0,0,0,0,0,0,0,0,0,0,0,0,0,0,0,0,0,0,0,0,0,0,0,0,
0,0,0,0,0,0,0,0,0,0,0,0,0,0,0,0,0,0,0,0,0,0,0,0,
0,0,0,0,0,0,0,0,0,0,0,0,0,0,0,0,0,0,0,0,0,0,0,0,
0,0,0,0,0,0,0,0,0,0,0,0,0,0,0,0,0,0,0,0,0,0,0,0,
0,0,0,0,0,0,0,0,0,0,0,0,0,0,0,0,0,0,0,0,0,0,0,0,
0,0,0,0,0,0,0,0,0,0,0,0,0,0,0,0,0,0,0,0,0,0,0,0,
0,0,0,0,0,0,0,0,0,0,0,0,0,0,0,0,0,0,0,0,0,0,0,0,
0,0,0,0,0,0,0,0,0,0,0,0,0,0,0,0,0,0,0,0,0,0,0,0,
0,0,0,0,0,0,0,0,0,0,0,0,0,0,0,0,0,0,0,0,0,0,0,0,
0,0,0,0,0,0,0,0,0,0,0,0,0,0,0,0,0,0,0,0,0,0,0,0,
0,0,0,0,0,0,0,0,0,0,0,0,0,0,0,0,0,0,0,0,0,0,0,0,
0,0,0,0,0,0,0,0,0,0,0,0,0,0,0,0,0,0,0,0,0,0,0,0,
0,0,0,0,0,0,0,0,0,0,0,0,0,0,0,0,0,0,0,0,0,0,0,0,
0,0,0,0,0,0,0,0,0,0,0,0,0,0,0,0,0,0,0,0,0,0,0,0,
0,0,0,0,0,0,0,0,0,0,0,0,0,0,0,0,0,0,0,0,0,0,0,0,
0,0,0,0,0,0,0,0,0,0,0,0,0,0,0,0,0,0,0,0,0,0,0,0,
0,0,0,0,0,0,0,0,0,0,0,0,0,0,0,0,0,0,0,0,0,0,0,0,
0,0,0,0,0,0,0,0,0,0,0,0,0,0,0,0,0,0,0,0,0,0,0,0,
0,0,0,0,0,0,0,0,0,0,0,0,0,0,0,0,0,0,0,0,0,0,0,0,
0,0,0,0,0,0,0,0,0,0,0,0,0,0,0,0,0,0,0,0,0,0,0,0,
0,0,0,0,0,0,0,0,0,0,0,0,0,0,0,0,0,0,0,0,0,0,0,0
</data>
 </layer>
 <layer id="4" name="metadata" width="24" height="26" visible="0">
  <data encoding="csv">
0,0,0,0,0,0,0,0,0,0,0,0,0,0,0,0,0,0,0,0,0,0,0,0,
0,0,0,0,0,0,0,0,0,0,0,0,0,0,0,0,0,0,0,0,0,0,0,0,
0,0,0,0,0,0,0,0,0,0,0,0,0,0,0,0,0,0,0,0,0,0,0,0,
0,0,0,0,0,0,0,0,0,0,0,0,0,0,0,0,0,0,0,0,0,0,0,0,
0,0,0,0,0,0,0,0,0,0,0,0,0,0,0,0,0,0,0,0,0,0,0,0,
0,0,0,0,0,0,0,0,0,0,0,0,0,0,0,0,0,0,0,0,0,0,0,0,
0,0,0,0,0,0,0,0,0,0,0,0,0,0,0,0,0,0,0,0,0,0,0,0,
0,0,0,0,0,0,0,0,0,0,0,0,0,0,0,0,0,0,0,0,0,0,0,0,
0,0,0,0,0,0,0,0,0,0,0,0,0,0,0,0,0,0,0,0,0,0,0,0,
0,0,0,0,0,0,0,0,0,0,0,0,0,0,0,0,0,0,0,0,0,0,0,0,
0,0,0,0,0,0,0,0,0,0,0,0,0,0,0,0,0,0,0,0,0,0,0,0,
0,0,0,0,0,0,0,0,0,0,0,0,0,0,0,0,0,0,0,0,0,0,0,0,
0,0,0,0,0,0,0,0,0,0,0,0,0,0,0,0,0,0,0,0,0,0,0,0,
0,0,0,0,0,0,0,0,0,0,0,0,0,0,0,0,0,0,0,0,0,0,0,0,
0,0,0,0,0,0,0,0,0,0,0,0,0,0,0,0,0,0,0,0,0,0,0,0,
0,0,0,0,0,0,0,0,0,0,0,0,0,0,0,0,0,0,0,0,0,0,0,0,
0,0,0,0,0,0,0,0,0,0,0,0,0,0,0,0,0,0,0,0,0,0,0,0,
0,0,0,0,0,0,0,0,0,0,0,0,0,0,0,0,0,0,0,0,0,0,0,0,
0,0,0,0,0,0,0,0,0,0,0,0,0,0,0,0,0,0,0,0,0,0,0,0,
0,0,0,0,0,0,0,0,0,0,0,0,0,0,0,0,0,0,0,0,0,0,0,0,
0,0,0,0,0,0,0,0,0,0,0,0,0,0,0,0,0,0,0,0,0,0,0,0,
0,0,0,0,0,0,0,0,0,0,0,0,0,0,0,0,0,0,0,0,0,0,0,0,
0,0,0,0,0,0,0,0,0,0,0,0,0,0,0,0,0,0,0,0,0,0,0,0,
0,0,0,0,0,0,0,0,0,0,0,0,0,0,0,0,0,0,0,0,0,0,0,0,
0,0,0,0,0,0,0,0,0,0,0,0,0,0,0,0,0,0,0,0,0,0,0,0,
0,0,0,0,0,0,0,0,0,0,0,0,0,0,0,0,0,0,0,0,0,0,0,0
</data>
 </layer>
 <layer id="3" name="actions" width="24" height="26" opacity="0.25">
  <data encoding="csv">
0,0,0,0,0,463,463,0,0,0,0,0,0,464,464,0,0,0,0,465,465,0,0,0,
0,0,0,0,0,0,0,0,0,0,0,0,0,0,0,0,0,0,0,0,0,0,0,0,
0,0,0,0,0,0,0,0,0,0,0,0,0,0,0,0,0,0,0,0,0,0,0,0,
0,0,0,0,0,0,0,0,0,0,0,0,0,0,0,0,0,0,0,0,0,0,0,0,
0,0,0,0,0,0,0,0,0,0,0,0,0,0,0,0,0,0,0,0,0,0,0,0,
0,0,0,0,0,0,0,0,0,0,0,0,0,0,0,0,0,0,0,0,0,0,0,0,
0,0,0,0,0,0,0,0,0,0,0,0,0,0,0,0,0,0,0,0,0,0,0,0,
0,0,0,0,0,0,0,0,0,0,0,0,0,0,0,0,0,0,0,0,0,0,0,0,
0,0,0,0,0,0,0,0,0,0,0,0,0,0,0,0,0,0,0,0,0,0,0,0,
0,0,0,0,0,0,0,0,0,0,0,0,0,0,0,0,0,0,0,0,0,0,0,0,
0,0,0,0,0,0,0,0,0,0,0,0,0,0,0,0,0,0,0,0,0,0,0,0,
0,0,0,0,0,0,0,0,0,0,0,0,0,0,0,0,0,0,0,0,0,0,0,0,
0,0,0,0,0,0,0,0,0,0,0,0,0,0,0,0,0,0,0,0,0,0,0,0,
0,0,0,0,0,0,0,0,0,0,0,0,0,0,0,0,0,0,0,0,0,0,0,0,
0,0,0,0,0,0,0,0,0,0,0,0,0,0,0,0,0,0,0,0,0,0,0,0,
0,0,0,0,0,0,0,0,0,0,0,0,0,0,0,0,0,0,0,0,0,0,0,0,
0,0,0,0,0,0,0,0,0,0,0,0,0,0,0,0,0,0,0,0,0,0,0,0,
0,0,0,0,0,0,0,0,0,0,0,0,0,0,0,0,0,0,0,0,0,0,0,0,
0,0,0,0,0,0,0,0,0,0,0,0,0,0,0,0,0,0,0,0,0,0,0,0,
0,0,0,0,0,0,0,0,0,0,0,0,0,0,0,0,0,0,0,0,0,0,0,0,
0,0,0,0,0,0,0,0,0,0,0,0,0,0,0,0,0,0,0,0,0,0,0,0,
0,0,0,0,0,0,0,0,0,0,0,0,0,0,0,0,0,0,0,0,0,0,0,0,
0,0,0,0,0,0,0,0,0,0,0,0,0,0,0,0,0,0,0,0,0,0,0,0,
0,0,0,0,0,0,0,0,0,0,0,0,0,0,0,0,0,0,0,0,0,0,0,0,
0,0,0,0,0,0,0,0,0,0,0,0,0,0,0,0,0,0,0,0,0,0,0,0,
0,0,0,0,0,0,0,0,0,0,0,0,0,0,0,0,0,0,0,0,0,0,0,0
</data>
 </layer>
</map>
