<?xml version="1.0" encoding="UTF-8"?>
<map version="1.10" tiledversion="1.11.2" orientation="orthogonal" renderorder="right-down" width="8" height="12" tilewidth="32" tileheight="32" infinite="0" nextlayerid="6" nextobjectid="1">
 <tileset firstgid="1" source="../tilesets/room02.tsx"/>
 <tileset firstgid="81" source="../tilesets/blue-labels.tsx"/>
 <layer id="1" name="decor" width="8" height="12">
  <data encoding="csv">
0,0,0,0,0,0,0,0,
0,0,45,2,2,48,0,0,
0,2,2,2,2,2,51,0,
0,2,2,2,0,0,0,0,
0,51,2,2,2,2,2,0,
0,2,24,26,26,28,2,0,
0,0,25,27,27,29,0,0,
0,0,0,0,0,0,0,0,
0,0,0,0,0,0,0,0,
0,0,0,0,0,0,0,0,
0,0,0,0,0,0,0,0,
0,0,0,0,0,0,0,0
</data>
 </layer>
 <layer id="4" name="colliders" width="8" height="12">
  <data encoding="csv">
10,22,6,6,6,6,38,9,
7,23,0,0,0,0,39,8,
7,0,0,0,0,0,0,41,
7,0,0,0,60,59,61,8,
7,60,59,61,0,0,0,8,
7,0,0,0,0,0,0,8,
7,63,0,0,0,0,62,8,
11,5,5,5,0,0,5,12,
0,0,0,0,0,0,0,0,
0,0,0,0,0,0,0,0,
0,0,0,0,0,0,0,0,
0,0,0,0,0,0,0,0
</data>
 </layer>
 <layer id="5" name="metadata" width="8" height="12">
  <data encoding="csv">
0,0,0,0,0,0,0,0,
0,0,0,0,0,0,0,0,
0,0,0,0,0,0,0,0,
0,0,0,0,0,0,0,0,
0,0,0,0,0,0,0,0,
0,0,0,0,0,0,0,0,
0,0,0,0,0,0,0,0,
0,0,0,0,0,0,0,0,
0,0,0,0,0,0,0,0,
0,0,0,0,0,0,0,0,
0,0,0,0,0,0,0,0,
0,0,0,0,0,0,0,0
</data>
 </layer>
 <layer id="2" name="characters" width="8" height="12">
  <data encoding="csv">
0,0,0,0,0,0,0,0,
0,0,0,0,0,0,0,0,
0,0,117,0,0,0,0,0,
0,0,0,0,0,0,0,0,
0,0,0,0,0,0,0,0,
0,0,0,0,0,0,118,0,
0,0,0,0,0,0,0,0,
0,0,0,0,0,0,0,0,
0,0,0,0,0,0,0,0,
0,0,0,0,0,0,0,0,
0,0,0,0,0,0,0,0,
0,0,0,0,0,0,0,0
</data>
 </layer>
 <layer id="3" name="actions" width="8" height="12">
  <data encoding="csv">
0,0,0,0,0,0,0,0,
0,0,0,0,0,0,0,0,
0,0,0,0,0,0,0,0,
0,0,0,0,0,0,0,0,
0,0,0,0,314,314,313,0,
0,314,314,314,0,313,0,0,
0,0,0,0,0,0,0,0,
0,0,0,0,304,304,0,0,
0,0,0,0,0,0,0,0,
0,0,0,0,0,0,0,0,
0,0,0,0,0,0,0,0,
0,0,0,0,0,0,0,0
</data>
 </layer>
</map>
