<?xml version="1.0" encoding="UTF-8"?>
<map version="1.10" tiledversion="1.11.2" orientation="orthogonal" renderorder="right-down" width="8" height="28" tilewidth="32" tileheight="32" infinite="0" nextlayerid="6" nextobjectid="1">
 <tileset firstgid="1" source="../tilesets/room02.tsx"/>
 <tileset firstgid="81" source="../tilesets/blue-labels.tsx"/>
 <layer id="1" name="decor" width="8" height="28">
  <data encoding="csv">
0,0,0,0,0,0,0,0,
0,13,13,13,13,13,0,0,
0,13,24,26,26,28,13,0,
0,13,25,27,27,29,13,0,
0,13,13,13,13,13,13,0,
0,13,13,13,13,13,13,0,
0,13,13,13,13,13,13,0,
0,0,0,13,13,46,13,0,
0,0,0,13,13,13,13,0,
0,13,13,13,13,13,13,0,
0,13,13,13,13,13,13,0,
0,0,0,13,13,13,13,0,
0,0,0,13,13,13,13,0,
0,13,13,13,13,13,13,0,
0,13,13,13,13,13,13,0,
0,0,0,13,13,13,0,0,
0,0,0,13,13,0,0,0,
0,13,13,13,13,0,0,0,
0,0,0,0,13,13,39,0,
0,0,0,0,13,13,13,0,
0,13,24,26,26,28,13,0,
0,13,25,27,27,29,13,0,
0,13,13,13,13,13,13,0,
0,0,0,0,0,0,0,0,
0,0,0,0,0,0,0,0,
0,0,0,0,0,0,0,0,
0,0,0,0,0,0,0,0,
0,0,0,0,0,0,0,0
</data>
 </layer>
 <layer id="4" name="metadata" width="8" height="28">
  <data encoding="csv">
0,0,0,0,0,0,0,0,
0,0,0,0,0,0,0,0,
0,0,0,0,0,0,0,0,
0,0,0,0,0,0,0,0,
0,0,0,0,0,0,0,0,
0,0,0,0,0,0,0,0,
0,0,0,0,0,0,0,0,
0,0,0,0,0,0,0,0,
0,0,0,0,0,0,0,0,
0,0,0,0,0,0,0,0,
0,0,0,0,0,0,0,0,
0,0,0,0,0,0,0,0,
0,0,0,0,0,0,0,0,
0,0,0,0,0,0,0,0,
0,0,0,0,0,0,0,0,
0,0,0,0,0,0,0,0,
0,0,0,0,0,0,0,0,
0,0,0,0,0,0,0,0,
0,0,0,0,0,0,0,0,
0,0,0,0,0,0,0,0,
0,0,0,0,0,0,0,0,
0,0,0,0,0,0,0,0,
0,0,0,0,0,0,0,0,
0,0,0,0,0,0,0,0,
0,0,0,0,0,0,0,0,
0,0,0,0,0,0,0,0,
0,0,0,0,0,0,0,0,
0,0,0,0,0,0,0,0
</data>
 </layer>
 <layer id="5" name="characters" width="8" height="28">
  <data encoding="csv">
0,0,0,0,0,0,0,0,
0,0,0,0,0,0,0,0,
0,0,0,0,0,0,0,0,
0,0,0,0,0,0,0,0,
0,0,0,0,0,0,0,0,
0,0,0,0,0,0,0,0,
0,0,0,0,0,0,0,0,
0,0,0,0,0,0,0,0,
0,0,0,0,0,0,0,0,
0,0,0,0,0,0,0,0,
0,0,0,0,0,0,0,0,
0,0,0,0,0,0,0,0,
0,0,0,0,0,0,0,0,
0,0,0,0,0,0,0,0,
0,0,0,0,0,0,0,0,
0,0,0,0,0,0,0,0,
0,0,0,0,0,0,0,0,
0,0,150,0,0,0,0,0,
0,0,0,0,0,0,0,0,
0,0,0,0,0,0,0,0,
0,0,0,0,0,0,0,0,
0,0,0,0,0,0,0,0,
0,0,0,0,0,0,0,0,
0,0,0,0,0,0,0,0,
0,0,0,0,0,0,0,0,
0,0,0,0,0,0,0,0,
0,0,0,0,0,0,0,0,
0,0,0,0,0,0,0,0
</data>
 </layer>
 <layer id="2" name="colliders" width="8" height="28">
  <data encoding="csv">
10,38,6,40,40,6,38,9,
7,39,0,0,0,0,39,8,
7,0,0,0,0,0,0,8,
7,0,0,0,0,0,0,8,
7,0,0,0,0,0,0,8,
41,0,0,0,0,0,0,8,
72,0,0,0,0,0,0,8,
11,5,5,0,0,0,0,8,
10,6,6,0,0,0,0,8,
41,0,0,0,0,0,0,8,
72,0,0,0,0,0,0,8,
11,5,5,0,0,0,0,8,
10,6,6,0,0,0,0,8,
41,0,0,0,0,0,0,8,
72,0,0,0,0,0,0,8,
11,5,5,0,0,0,45,8,
10,6,6,0,0,5,5,8,
7,0,0,0,0,6,38,8,
7,32,34,36,0,0,0,8,
7,33,35,37,0,0,0,8,
7,0,0,0,0,0,0,8,
7,0,0,0,0,0,0,8,
7,0,0,0,0,0,0,8,
11,5,5,0,0,5,5,12,
0,0,0,0,0,0,0,0,
0,0,0,0,0,0,0,0,
0,0,0,0,0,0,0,0,
0,0,0,0,0,0,0,0
</data>
 </layer>
 <layer id="3" name="actions" width="8" height="28">
  <data encoding="csv">
0,0,0,0,0,0,0,0,
0,0,0,0,0,0,0,0,
0,0,0,0,0,0,0,0,
0,0,0,0,0,0,0,0,
0,0,0,0,0,0,0,0,
0,421,0,0,0,0,0,0,
0,0,0,0,0,0,0,0,
0,0,0,0,0,0,0,0,
0,0,0,0,0,0,0,0,
0,422,0,0,0,0,0,0,
0,0,0,0,0,0,0,0,
0,0,0,0,0,0,0,0,
0,0,0,0,0,0,0,0,
0,422,0,0,0,0,0,0,
0,0,0,0,0,0,0,0,
0,0,0,0,0,0,0,0,
0,0,0,0,0,0,0,0,
0,0,0,417,0,0,0,0,
0,0,0,0,0,0,0,0,
0,0,0,0,0,0,0,0,
0,417,417,417,0,0,0,0,
0,0,0,0,0,0,0,0,
0,0,0,0,0,0,0,0,
0,0,0,310,310,0,0,0,
0,0,0,0,0,0,0,0,
0,0,0,0,0,0,0,0,
0,0,0,0,0,0,0,0,
0,0,0,0,0,0,0,0
</data>
 </layer>
</map>
