<?xml version="1.0" encoding="UTF-8"?>
<map version="1.10" tiledversion="1.11.2" orientation="orthogonal" renderorder="right-down" width="8" height="28" tilewidth="32" tileheight="32" infinite="0" nextlayerid="6" nextobjectid="1">
 <tileset firstgid="1" source="../tilesets/room02.tsx"/>
 <tileset firstgid="81" source="../tilesets/blue-labels.tsx"/>
 <layer id="1" name="decor" width="8" height="28">
  <data encoding="csv">
2,2,2,2,2,2,2,2,
0,39,2,2,2,2,39,2,
0,0,0,0,0,0,0,2,
0,0,0,0,0,0,0,2,
0,2,2,2,2,2,2,2,
0,0,0,24,28,0,0,2,
0,0,0,25,29,0,0,2,
0,2,2,24,28,2,2,2,
0,0,0,25,29,0,0,2,
0,0,0,24,28,0,0,2,
0,2,2,25,29,2,2,2,
0,0,0,24,28,0,0,2,
0,0,0,25,29,0,0,2,
0,2,2,24,28,2,2,2,
0,0,0,25,29,0,0,2,
0,0,0,24,28,0,0,2,
0,2,2,25,29,2,2,2,
0,0,0,24,28,0,0,2,
0,0,0,25,29,0,0,2,
0,2,2,24,28,2,2,2,
0,2,2,25,29,2,2,2,
0,2,2,2,2,2,2,2,
0,2,2,2,2,45,63,2,
0,0,0,0,0,0,0,2,
0,0,0,0,0,0,0,0,
0,0,0,0,0,0,0,0,
0,0,0,0,0,0,0,0,
0,0,0,0,0,0,0,0
</data>
 </layer>
 <layer id="4" name="actions" width="8" height="28">
  <data encoding="csv">
0,0,0,0,0,0,0,0,
0,0,0,0,0,0,0,0,
0,0,0,0,0,0,0,0,
0,0,0,0,0,0,0,0,
0,308,308,308,308,308,308,0,
0,0,0,0,0,0,0,0,
0,0,0,0,0,0,0,0,
0,0,0,0,0,0,0,0,
0,0,0,0,0,0,0,0,
0,0,0,0,0,0,0,0,
0,0,0,0,0,0,0,0,
0,0,0,0,0,0,0,0,
0,0,0,0,0,0,0,0,
0,0,0,0,0,0,0,0,
0,0,0,0,0,0,0,0,
0,0,0,0,0,0,0,0,
0,0,0,0,0,0,0,0,
0,0,0,0,0,0,0,0,
0,0,0,0,0,0,0,0,
0,0,0,0,0,0,0,0,
0,0,0,0,0,0,0,0,
0,0,0,0,0,0,0,0,
0,0,0,0,0,0,0,0,
0,302,302,0,0,0,0,0,
0,0,0,0,0,0,0,0,
0,0,0,0,0,0,0,0,
0,0,0,0,0,0,0,0,
0,0,0,0,0,0,0,0
</data>
 </layer>
 <layer id="5" name="metadata" width="8" height="28">
  <data encoding="csv">
0,0,0,0,0,0,0,0,
0,0,0,0,0,0,0,0,
0,0,0,0,0,0,0,0,
0,0,0,0,0,0,0,0,
0,0,0,0,0,0,0,0,
0,0,0,0,0,0,0,0,
0,0,0,0,0,0,0,0,
0,0,0,0,0,0,0,0,
0,0,0,0,0,0,0,0,
0,0,0,0,0,0,0,0,
0,0,0,0,0,0,0,0,
0,0,0,0,0,0,0,0,
0,0,0,0,0,0,0,0,
0,0,0,0,0,0,0,0,
0,0,0,0,0,0,0,0,
0,0,0,0,0,0,0,0,
0,0,0,0,0,0,0,0,
0,0,0,0,0,0,0,0,
0,0,0,0,0,0,0,0,
0,0,0,0,0,0,0,0,
0,0,0,0,0,0,0,0,
0,0,0,0,0,0,0,0,
0,0,0,0,0,0,0,0,
0,0,0,0,0,0,0,0,
0,0,0,0,0,0,0,0,
0,0,0,0,0,0,0,0,
0,0,0,0,0,0,0,0,
0,0,0,0,0,0,0,0
</data>
 </layer>
 <layer id="3" name="colliders" width="8" height="28">
  <data encoding="csv">
10,38,40,6,6,40,38,9,
7,0,0,0,0,0,0,8,
7,32,34,34,34,34,36,8,
7,33,35,35,35,35,37,8,
7,0,0,0,0,0,0,8,
7,64,64,0,0,64,64,8,
7,65,65,0,0,65,65,8,
7,0,0,0,0,0,0,8,
7,70,70,0,0,70,70,8,
7,71,71,0,0,71,71,8,
7,0,0,0,0,0,0,8,
7,68,68,0,0,68,68,8,
7,69,69,0,0,69,69,8,
7,0,0,0,0,0,0,8,
7,66,66,0,0,66,66,8,
7,67,67,0,0,67,67,8,
7,0,0,0,0,0,0,8,
7,64,64,0,0,64,64,8,
7,65,65,0,0,65,65,8,
7,0,0,0,0,0,0,8,
7,0,0,0,0,0,0,8,
7,0,0,0,0,0,0,8,
7,0,0,0,0,0,0,8,
11,0,0,5,5,5,5,12,
0,0,0,0,0,0,0,0,
0,0,0,0,0,0,0,0,
0,0,0,0,0,0,0,0,
0,0,0,0,0,0,0,0
</data>
 </layer>
 <layer id="2" name="characters" width="8" height="28">
  <data encoding="csv">
0,0,0,0,0,0,0,0,
0,0,0,0,0,0,0,0,
0,0,0,119,0,0,0,0,
0,0,0,0,0,0,0,0,
0,0,0,0,0,0,0,0,
0,0,0,0,0,0,0,0,
0,0,0,0,0,0,0,0,
0,0,0,0,0,0,0,0,
0,0,0,0,0,0,0,0,
0,0,0,0,0,0,0,0,
0,0,0,0,0,0,0,0,
0,0,0,0,0,0,0,0,
0,0,0,0,0,0,0,0,
0,0,0,0,0,0,0,0,
0,0,0,0,0,0,0,0,
0,0,0,0,0,0,0,0,
0,0,0,0,0,0,0,0,
0,0,0,0,0,0,0,0,
0,0,0,0,0,0,0,0,
0,0,0,0,0,0,0,0,
0,0,0,0,0,0,0,0,
0,0,0,0,0,0,0,0,
0,0,0,0,0,0,0,0,
0,0,0,0,0,0,0,0,
0,0,0,0,0,0,0,0,
0,0,0,0,0,0,0,0,
0,0,0,0,0,0,0,0,
0,0,0,0,0,0,0,0
</data>
 </layer>
</map>
