<?xml version="1.0" encoding="UTF-8"?>
<map version="1.10" tiledversion="1.11.2" orientation="orthogonal" renderorder="right-down" width="9" height="11" tilewidth="32" tileheight="32" infinite="0" nextlayerid="6" nextobjectid="1">
 <tileset firstgid="1" source="../tilesets/forest01.tsx"/>
 <tileset firstgid="321" source="../tilesets/blue-labels.tsx"/>
 <layer id="1" name="decor" width="9" height="11">
  <data encoding="csv">
1,1,1,1,1,1,1,1,1,
1,1,1,1,1,1,1,1,1,
1,1,1,8,8,8,1,1,1,
1,1,1,2,2,2,1,1,1,
1,10,6,6,6,6,6,9,1,
1,1,1,3,1,1,1,1,1,
1,1,1,1,1,1,1,1,1,
1,1,1,1,1,4,1,1,1,
1,1,1,1,1,1,1,1,1,
0,0,0,0,0,0,0,0,0,
0,0,0,0,0,0,0,0,0
</data>
 </layer>
 <layer id="2" name="colliders" width="9" height="11">
  <data encoding="csv">
1,1,20,80,80,80,22,1,1,
18,18,21,81,81,81,23,18,18,
19,19,21,0,0,0,23,19,19,
19,19,21,0,0,0,23,19,19,
19,19,21,0,0,0,23,19,19,
19,19,21,0,0,0,23,19,19,
19,19,21,0,0,0,23,19,19,
19,19,21,0,0,0,23,19,19,
19,19,59,0,0,0,60,19,19,
29,29,29,29,29,29,29,29,29,
0,0,0,0,0,0,0,0,0
</data>
 </layer>
 <layer id="4" name="metadata" width="9" height="11">
  <data encoding="csv">
0,0,0,0,0,0,0,0,0,
0,0,0,0,0,0,0,0,0,
0,0,0,0,0,0,0,0,0,
0,0,0,0,0,0,0,0,0,
0,0,0,0,0,0,0,0,0,
0,0,0,0,0,0,0,0,0,
0,0,0,0,0,0,0,0,0,
0,0,0,0,0,0,0,0,0,
0,0,0,0,0,0,0,0,0,
0,0,0,0,0,0,0,0,0,
0,0,0,0,0,0,0,0,0
</data>
 </layer>
 <layer id="5" name="actions" width="9" height="11" opacity="0.44">
  <data encoding="csv">
0,0,0,0,0,0,0,0,0,
0,0,0,0,0,0,0,0,0,
0,0,0,678,678,678,0,0,0,
0,0,0,0,0,0,0,0,0,
0,0,0,0,0,0,0,0,0,
0,0,0,0,0,0,0,0,0,
0,0,0,0,0,0,0,0,0,
0,0,0,0,0,0,0,0,0,
0,0,0,680,680,680,0,0,0,
0,0,0,0,0,0,0,0,0,
0,0,0,0,0,0,0,0,0
</data>
 </layer>
 <layer id="3" name="characters" width="9" height="11">
  <data encoding="csv">
0,0,0,0,0,0,0,0,0,
0,0,0,0,0,0,0,0,0,
0,0,0,0,399,0,0,0,0,
0,0,0,0,0,0,0,0,0,
0,0,0,0,0,0,0,0,0,
0,0,0,0,0,0,0,0,0,
0,0,0,0,0,0,0,0,0,
0,0,0,0,0,0,0,0,0,
0,0,0,0,0,0,0,0,0,
0,0,0,0,0,0,0,0,0,
0,0,0,0,0,0,0,0,0
</data>
 </layer>
</map>
