<?xml version="1.0" encoding="UTF-8"?>
<map version="1.10" tiledversion="1.11.2" orientation="orthogonal" renderorder="right-down" width="10" height="10" tilewidth="32" tileheight="32" infinite="0" nextlayerid="6" nextobjectid="1">
 <tileset firstgid="1" source="../tilesets/lab02.tsx"/>
 <tileset firstgid="129" source="../tilesets/blue-labels.tsx"/>
 <layer id="1" name="decor" width="10" height="10">
  <data encoding="csv">
1,1,0,0,0,0,0,0,0,0,
1,1,0,0,0,0,0,0,0,0,
1,1,0,0,0,0,0,0,0,0,
1,1,0,0,0,0,0,0,0,0,
1,1,0,0,0,0,0,0,0,0,
1,1,1,1,38,1,1,38,1,0,
1,1,1,1,1,1,1,1,1,0,
1,1,1,1,1,1,1,1,1,0,
0,0,0,0,0,0,0,0,0,0,
0,0,0,0,0,0,0,0,0,0
</data>
 </layer>
 <layer id="2" name="colliders" width="10" height="10">
  <data encoding="csv">
0,0,41,41,41,41,41,41,41,41,
0,0,41,41,41,41,41,41,41,41,
0,0,41,41,41,41,41,41,41,41,
0,0,39,25,36,32,34,36,39,41,
0,0,40,26,37,33,35,37,40,41,
0,0,0,0,0,0,0,0,0,41,
0,0,0,0,0,0,0,0,0,41,
0,0,0,0,0,0,0,0,0,41,
41,41,41,41,41,41,41,41,41,41,
41,41,41,41,41,41,41,41,41,41
</data>
 </layer>
 <layer id="3" name="characters" width="10" height="10">
  <data encoding="csv">
0,0,0,0,0,0,0,0,0,0,
0,0,0,0,0,0,0,0,0,0,
0,0,0,0,0,0,0,0,0,0,
0,0,0,0,0,0,0,0,0,0,
0,0,0,0,0,0,0,0,0,0,
0,0,0,0,0,169,134,0,0,0,
174,0,0,0,0,0,131,0,0,0,
0,0,0,0,0,0,0,0,0,0,
0,0,0,0,0,0,0,0,0,0,
0,0,0,0,0,0,0,0,0,0
</data>
 </layer>
 <layer id="4" name="metadata" width="10" height="10">
  <data encoding="csv">
0,0,0,0,0,0,0,0,0,0,
0,0,0,0,0,0,0,0,0,0,
0,0,0,0,0,0,0,0,0,0,
0,0,0,0,0,0,0,0,0,0,
0,0,0,0,0,0,0,0,0,0,
0,0,0,0,0,0,0,0,0,0,
0,0,0,0,0,0,0,0,0,0,
0,0,0,0,0,0,0,0,0,0,
0,0,0,0,0,0,0,0,0,0,
0,0,0,0,0,0,0,0,0,0
</data>
 </layer>
 <layer id="5" name="actions" width="10" height="10">
  <data encoding="csv">
0,0,0,0,0,0,0,0,0,0,
0,0,0,0,0,0,0,0,0,0,
0,0,0,0,0,0,0,0,0,0,
0,0,0,0,0,0,0,0,0,0,
0,0,0,0,0,0,0,0,0,0,
0,0,0,0,0,0,0,0,0,0,
0,0,0,0,0,0,481,0,0,0,
0,0,0,0,0,0,0,0,0,0,
0,0,0,0,0,0,0,0,0,0,
0,0,0,0,0,0,0,0,0,0
</data>
 </layer>
</map>
