<?xml version="1.0" encoding="UTF-8"?>
<map version="1.10" tiledversion="1.11.2" orientation="orthogonal" renderorder="right-down" width="9" height="16" tilewidth="32" tileheight="32" infinite="0" nextlayerid="6" nextobjectid="1">
 <tileset firstgid="1" source="../tilesets/underground02.tsx"/>
 <tileset firstgid="257" source="../tilesets/blue-labels.tsx"/>
 <layer id="1" name="decor" width="9" height="16">
  <data encoding="csv">
0,0,0,0,0,0,0,0,0,
0,0,0,0,0,0,0,0,0,
0,0,0,0,0,0,0,0,0,
0,0,0,0,0,0,0,0,0,
0,0,0,0,0,0,0,0,0,
0,0,0,0,84,0,0,0,0,
0,0,0,0,0,0,0,0,0,
0,0,0,0,0,0,0,0,0,
0,0,0,0,84,0,0,0,0,
196,194,0,0,0,0,0,0,0,
197,195,0,0,0,0,0,0,0,
0,0,0,0,84,0,0,0,0,
0,0,0,0,0,0,0,200,198,
0,0,0,0,0,0,0,201,199,
0,192,186,0,0,0,0,0,0,
0,193,187,0,0,0,0,0,0
</data>
 </layer>
 <layer id="2" name="metadata" width="9" height="16">
  <data encoding="csv">
0,0,0,0,0,0,0,0,257,
0,0,0,0,0,0,0,0,0,
0,0,0,0,0,0,0,0,0,
0,0,0,0,0,0,0,0,0,
0,0,0,0,0,0,0,0,0,
0,0,0,0,0,0,0,0,0,
0,0,0,0,0,0,0,0,0,
0,0,0,0,0,0,0,0,0,
0,0,0,0,0,0,0,0,0,
0,0,0,0,0,0,0,0,0,
0,0,0,0,0,0,0,0,0,
0,0,0,0,0,0,0,0,0,
0,0,0,0,0,0,0,0,0,
0,0,0,0,0,0,0,0,0,
0,0,0,0,0,0,0,0,0,
0,0,0,0,0,0,0,0,0
</data>
 </layer>
 <layer id="3" name="colliders" width="9" height="16">
  <data encoding="csv">
0,0,0,203,0,203,0,0,0,
0,0,0,203,0,203,0,0,0,
0,0,0,203,0,203,0,0,0,
0,0,0,203,0,203,0,0,0,
0,0,0,203,0,203,0,0,0,
0,0,0,203,0,203,0,0,0,
0,0,0,203,0,203,0,0,0,
0,0,0,203,0,203,0,0,0,
0,0,0,203,0,203,0,0,0,
0,0,0,203,0,203,0,0,0,
0,0,0,203,0,203,0,0,0,
0,0,0,203,0,203,0,0,0,
0,0,0,203,0,203,0,0,0,
0,0,0,203,0,203,0,0,0,
0,0,0,203,0,203,0,0,0,
0,0,0,203,203,203,0,0,0
</data>
 </layer>
 <layer id="4" name="actions" width="9" height="16">
  <data encoding="csv">
0,0,0,0,0,0,0,0,0,
0,0,0,0,0,0,0,0,0,
0,0,0,0,0,0,0,0,0,
0,0,0,0,0,0,0,0,0,
0,0,0,0,0,0,0,0,0,
0,0,0,0,0,0,0,0,0,
0,0,0,0,0,0,0,0,0,
0,0,0,0,0,0,0,0,0,
0,0,0,0,0,0,0,0,0,
0,0,0,0,0,0,0,0,0,
0,0,0,0,0,0,0,0,0,
0,0,0,0,0,0,0,0,0,
0,0,0,0,0,0,0,0,0,
0,0,0,0,0,0,0,0,0,
0,0,0,0,0,0,0,0,0,
0,0,0,0,0,0,0,0,0
</data>
 </layer>
 <layer id="5" name="characters" width="9" height="16">
  <data encoding="csv">
0,0,0,0,0,0,0,0,0,
0,0,0,0,0,0,0,0,0,
0,0,0,0,0,0,0,0,0,
0,0,0,0,0,0,0,0,0,
0,0,0,0,0,0,0,0,0,
0,0,0,0,0,0,0,0,0,
0,0,0,0,0,0,0,0,0,
0,0,0,0,0,0,0,0,0,
0,0,0,0,0,0,0,0,0,
0,0,0,0,0,0,0,0,0,
0,0,0,0,0,0,0,0,0,
0,0,0,0,0,0,0,0,0,
0,0,0,0,0,0,0,0,0,
0,0,0,0,0,0,0,0,0,
0,0,0,0,0,0,0,0,0,
0,0,0,0,0,0,0,0,0
</data>
 </layer>
</map>
