<?xml version="1.0" encoding="UTF-8"?>
<map version="1.10" tiledversion="1.11.2" orientation="orthogonal" renderorder="right-down" width="8" height="10" tilewidth="32" tileheight="32" infinite="0" nextlayerid="6" nextobjectid="1">
 <tileset firstgid="1" source="../tilesets/lab02.tsx"/>
 <tileset firstgid="129" source="../tilesets/blue-labels.tsx"/>
 <layer id="1" name="decor" width="8" height="10">
  <data encoding="csv">
0,0,0,0,0,0,0,0,
0,0,0,0,0,0,0,0,
0,0,0,0,0,0,0,0,
45,51,0,0,0,0,81,87,
46,52,0,0,0,0,82,88,
47,53,0,0,0,0,83,89,
1,1,1,1,1,1,1,1,
1,1,1,1,1,1,1,1,
1,1,1,1,1,1,1,1,
0,0,0,1,1,0,0,0
</data>
 </layer>
 <layer id="2" name="colliders" width="8" height="10">
  <data encoding="csv">
42,48,54,60,66,72,78,84,
43,49,55,61,67,73,79,85,
44,50,56,62,68,74,80,86,
0,0,57,63,69,75,0,0,
0,0,58,64,70,76,0,0,
0,0,59,65,71,77,0,0,
0,0,0,0,0,0,0,0,
0,0,0,0,0,0,0,0,
0,0,0,0,0,0,0,0,
41,41,41,0,0,41,41,41
</data>
 </layer>
 <layer id="3" name="metadata" width="8" height="10">
  <data encoding="csv">
0,0,0,0,0,0,0,0,
0,0,0,0,0,0,0,0,
0,0,0,0,0,0,0,0,
0,0,0,0,0,0,0,0,
0,0,0,0,0,0,0,0,
0,0,0,0,0,0,0,0,
0,0,0,0,0,0,0,0,
0,0,0,0,0,0,0,0,
0,0,0,0,0,0,0,0,
0,0,0,0,0,0,0,0
</data>
 </layer>
 <layer id="4" name="characters" width="8" height="10">
  <data encoding="csv">
0,0,0,0,0,0,0,0,
0,0,0,0,0,0,0,0,
0,0,0,0,0,0,0,0,
0,0,0,0,0,0,0,0,
0,0,0,0,0,0,0,0,
0,0,0,0,0,0,0,0,
0,0,0,0,0,0,0,0,
0,0,0,0,0,0,0,0,
0,0,0,0,0,0,0,0,
0,0,0,0,0,0,0,0
</data>
 </layer>
 <layer id="5" name="actions" width="8" height="10">
  <data encoding="csv">
0,0,0,0,0,0,0,0,
0,0,0,0,0,0,0,0,
0,0,0,0,0,0,0,0,
396,396,0,0,0,0,396,396,
396,396,0,0,0,0,396,396,
396,396,0,0,0,0,396,396,
396,396,396,396,396,396,396,396,
396,396,396,396,396,396,396,396,
0,0,0,0,0,0,0,0,
0,0,0,397,397,0,0,0
</data>
 </layer>
</map>
