<?xml version="1.0" encoding="UTF-8"?>
<map version="1.10" tiledversion="1.11.2" orientation="orthogonal" renderorder="right-down" width="8" height="10" tilewidth="32" tileheight="32" infinite="0" nextlayerid="2" nextobjectid="1">
 <tileset firstgid="1" source="../tilesets/lab02.tsx"/>
 <layer id="1" name="Tile Layer 1" width="8" height="10">
  <data encoding="csv">
0,39,25,19,21,25,39,0,
0,40,26,20,22,26,40,0,
0,27,29,1,1,1,1,0,
0,28,30,1,1,1,1,0,
0,1,1,1,1,2,1,0,
0,1,1,1,1,1,1,0,
0,1,1,1,1,1,1,0,
0,1,1,1,1,1,1,0,
0,0,0,1,1,0,0,0,
0,0,0,1,1,0,0,0
</data>
 </layer>
</map>
