<?xml version="1.0" encoding="UTF-8"?>
<map version="1.10" tiledversion="1.11.0" orientation="orthogonal" renderorder="right-down" width="16" height="24" tilewidth="32" tileheight="32" infinite="0" nextlayerid="2" nextobjectid="1">
 <tileset firstgid="1" source="../tilesets/room03.tsx"/>
 <layer id="1" name="Tile Layer 1" width="16" height="24">
  <data encoding="csv">
0,0,0,0,0,0,0,0,0,0,0,0,0,0,0,0,
0,0,0,0,0,0,0,0,0,0,0,0,0,0,0,0,
0,0,0,0,0,0,0,0,0,0,0,0,0,0,0,0,
0,0,0,0,0,0,0,0,0,0,0,0,0,0,0,0,
0,0,0,0,0,0,0,0,0,0,0,0,0,0,0,0,
0,0,0,0,0,0,0,0,0,0,0,0,0,0,0,0,
0,0,0,0,0,0,0,0,0,0,0,0,0,0,0,0,
0,0,0,0,0,0,0,0,0,0,0,0,0,0,0,0,
0,0,0,0,0,0,0,0,0,0,0,0,0,0,0,0,
0,0,0,0,0,0,0,0,0,0,0,0,0,0,0,0,
0,0,0,0,0,0,0,0,0,0,0,0,0,0,0,0,
0,0,0,0,0,0,0,0,0,0,0,0,0,0,0,0,
0,0,0,0,0,0,0,0,0,0,0,0,0,0,0,0,
0,0,0,0,0,0,0,0,0,0,0,0,0,0,0,0,
0,1,3,5,1,1,1,3,5,1,1,1,3,5,1,0,
0,2,4,6,2,2,2,4,6,2,2,2,4,6,2,0,
0,58,7,7,7,7,7,7,7,7,7,7,7,7,58,0,
0,59,7,7,7,7,7,7,7,7,7,7,7,7,59,0,
0,60,7,7,7,7,7,7,7,7,7,7,7,7,60,0,
0,61,7,7,7,7,7,7,7,7,7,7,7,7,61,0,
0,62,7,7,7,7,7,7,7,7,7,7,7,7,62,0,
0,63,7,7,7,7,7,7,7,7,7,7,7,7,63,0,
0,64,60,60,60,60,60,60,60,60,60,60,60,60,64,0,
0,0,0,0,0,0,0,0,0,0,0,0,0,0,0,0
</data>
 </layer>
</map>
