<?xml version="1.0" encoding="UTF-8"?>
<map version="1.10" tiledversion="1.11.2" orientation="orthogonal" renderorder="right-down" width="8" height="8" tilewidth="32" tileheight="32" infinite="0" nextlayerid="6" nextobjectid="1">
 <tileset firstgid="1" source="../tilesets/room03.tsx"/>
 <layer id="1" name="decor" width="8" height="8">
  <data encoding="csv">
0,1,1,22,22,1,1,0,
0,99,2,0,0,2,2,0,
0,0,0,96,96,0,0,0,
0,0,8,10,14,12,0,0,
0,7,9,11,15,13,7,0,
0,0,0,7,7,7,0,0,
0,0,0,7,7,7,0,0,
0,0,0,7,7,0,0,0
</data>
 </layer>
 <layer id="2" name="colliders" width="8" height="8">
  <data encoding="csv">
0,0,0,0,0,0,0,0,
0,0,0,95,95,0,0,0,
0,83,93,0,0,94,83,0,
0,84,0,0,0,0,84,0,
82,0,0,0,0,0,0,82,
0,68,72,0,0,0,97,0,
0,69,73,0,0,0,98,0,
0,0,82,0,0,82,0,0
</data>
 </layer>
 <layer id="3" name="metadata" width="8" height="8">
  <data encoding="csv">
0,0,0,0,0,0,0,0,
0,0,0,0,0,0,0,0,
0,0,0,0,0,0,0,0,
0,0,0,0,0,0,0,0,
0,0,0,0,0,0,0,0,
0,0,0,0,0,0,0,0,
0,0,0,0,0,0,0,0,
0,0,0,0,0,0,0,0
</data>
 </layer>
 <layer id="4" name="actions" width="8" height="8">
  <data encoding="csv">
0,0,0,0,0,0,0,0,
0,0,0,0,0,0,0,0,
0,0,0,0,0,0,0,0,
0,0,0,0,0,0,0,0,
0,0,0,0,0,0,0,0,
0,0,0,0,0,0,0,0,
0,0,0,0,0,0,0,0,
0,0,0,0,0,0,0,0
</data>
 </layer>
 <layer id="5" name="characters" width="8" height="8">
  <data encoding="csv">
0,0,0,0,0,0,0,0,
0,0,0,0,0,0,0,0,
0,0,0,0,0,0,0,0,
0,0,0,0,0,0,0,0,
0,0,0,0,0,0,0,0,
0,0,0,0,0,0,0,0,
0,0,0,0,0,0,0,0,
0,0,0,0,0,0,0,0
</data>
 </layer>
</map>
