<?xml version="1.0" encoding="UTF-8"?>
<map version="1.10" tiledversion="1.11.0" orientation="orthogonal" renderorder="right-down" width="8" height="10" tilewidth="32" tileheight="32" infinite="0" nextlayerid="6" nextobjectid="1">
 <tileset firstgid="1" source="../tilesets/room03.tsx"/>
 <tileset firstgid="129" source="../tilesets/blue-labels.tsx"/>
 <layer id="1" name="decor" width="8" height="10">
  <data encoding="csv">
0,89,89,89,89,89,89,0,
0,90,90,90,90,0,0,0,
0,0,0,0,0,7,7,0,
0,7,7,0,0,7,7,0,
0,7,7,7,7,7,7,0,
0,7,8,14,10,12,7,0,
0,7,9,15,11,13,7,0,
0,7,7,7,7,7,7,0,
0,0,0,7,7,0,0,0,
0,0,0,0,0,0,0,0
</data>
 </layer>
 <layer id="3" name="colliders" width="8" height="10">
  <data encoding="csv">
82,0,0,0,0,3,5,82,
82,0,0,0,0,4,6,82,
82,95,94,100,102,0,0,82,
82,0,0,101,103,0,0,82,
82,0,0,0,0,0,0,82,
82,0,0,0,0,0,0,82,
82,0,0,0,0,0,0,82,
82,0,0,0,0,0,0,82,
82,49,51,0,0,49,51,82,
82,82,82,0,0,82,82,82
</data>
 </layer>
 <layer id="4" name="characters" width="8" height="10" opacity="0.77">
  <data encoding="csv">
0,0,0,0,0,0,0,0,
0,0,0,0,0,0,0,0,
0,0,156,0,0,0,0,0,
0,0,0,0,0,0,0,0,
0,0,0,0,0,0,0,0,
0,0,0,0,0,0,0,0,
0,0,0,0,0,0,0,0,
0,0,0,0,0,0,0,0,
0,0,0,0,0,0,0,0,
0,0,0,0,0,0,0,0
</data>
 </layer>
 <layer id="5" name="actions" width="8" height="10" opacity="0.65">
  <data encoding="csv">
0,0,0,0,0,0,0,0,
0,0,0,0,0,0,0,0,
0,0,0,0,0,0,0,0,
0,0,325,324,0,0,0,0,
0,0,0,0,0,0,0,0,
0,0,0,0,0,0,0,0,
0,0,0,0,0,0,0,0,
0,0,0,0,0,0,0,0,
0,0,0,0,0,0,0,0,
0,0,0,326,326,0,0,0
</data>
 </layer>
 <layer id="2" name="metadata" width="8" height="10">
  <data encoding="csv">
0,0,0,0,0,0,0,0,
0,0,0,0,0,0,0,0,
0,0,0,0,0,0,0,0,
0,0,0,0,0,0,0,0,
0,0,0,0,0,0,0,0,
0,0,0,0,0,0,0,0,
0,0,0,0,0,0,0,0,
0,0,0,0,0,0,0,0,
0,0,0,0,0,0,0,0,
0,0,0,0,0,0,0,0
</data>
 </layer>
</map>
