<?xml version="1.0" encoding="UTF-8"?>
<map version="1.10" tiledversion="1.11.2" orientation="orthogonal" renderorder="right-down" width="8" height="10" tilewidth="32" tileheight="32" infinite="0" nextlayerid="2" nextobjectid="1">
 <tileset firstgid="1" source="../tilesets/room03.tsx"/>
 <layer id="1" name="Tile Layer 1" width="8" height="10">
  <data encoding="csv">
0,89,89,89,89,89,89,0,
0,90,90,90,90,90,90,0,
0,95,94,100,102,94,95,0,
0,7,7,101,103,7,7,0,
0,7,7,7,7,7,7,0,
0,7,8,14,10,12,7,0,
0,7,9,15,11,13,7,0,
0,7,7,7,7,7,7,0,
0,49,51,7,7,49,51,0,
0,0,0,7,7,0,0,0
</data>
 </layer>
</map>
