<?xml version="1.0" encoding="UTF-8"?>
<map version="1.10" tiledversion="1.11.2" orientation="orthogonal" renderorder="right-down" width="4" height="12" tilewidth="32" tileheight="32" infinite="0" nextlayerid="2" nextobjectid="1">
 <tileset firstgid="1" source="../tilesets/tavern01.tsx"/>
 <layer id="1" name="Tile Layer 1" width="4" height="12">
  <data encoding="csv">
6,12,10,7,
6,13,11,7,
6,64,64,7,
6,64,63,7,
6,64,64,7,
4,63,63,5,
6,64,64,7,
6,63,63,7,
6,64,64,7,
6,64,63,7,
6,64,64,7,
6,0,0,7
</data>
 </layer>
</map>
