<?xml version="1.0" encoding="UTF-8"?>
<map version="1.10" tiledversion="1.11.2" orientation="orthogonal" renderorder="right-down" width="8" height="10" tilewidth="32" tileheight="32" infinite="0" nextlayerid="6" nextobjectid="1">
 <tileset firstgid="1" source="../tilesets/room03.tsx"/>
 <tileset firstgid="129" source="../tilesets/blue-labels.tsx"/>
 <layer id="3" name="metadata" width="8" height="10">
  <data encoding="csv">
0,0,0,0,0,0,0,0,
0,0,0,0,0,0,0,0,
0,0,0,0,0,0,0,0,
0,0,0,0,0,0,0,0,
0,0,0,0,0,0,0,0,
0,0,0,0,0,0,0,0,
0,0,0,0,0,0,0,0,
0,0,0,0,0,0,0,0,
0,0,0,0,0,0,0,0,
0,0,0,0,0,0,0,0
</data>
 </layer>
 <layer id="4" name="characters" width="8" height="10">
  <data encoding="csv">
0,0,0,0,0,0,0,0,
0,0,0,0,0,0,0,0,
0,0,0,0,0,0,0,0,
0,0,0,0,0,0,0,0,
0,0,0,0,0,0,0,0,
0,0,0,0,0,0,0,0,
0,0,0,0,0,0,0,0,
0,0,0,0,0,0,0,0,
0,0,0,0,0,0,0,0,
0,0,0,0,0,0,0,0
</data>
 </layer>
 <layer id="5" name="decor" width="8" height="10">
  <data encoding="csv">
0,0,0,0,0,0,0,0,
111,111,113,116,105,108,111,111,
0,0,0,0,0,0,0,0,
0,104,115,0,107,110,104,0,
0,104,104,104,104,104,104,0,
0,104,104,104,104,104,104,0,
0,0,0,0,0,0,0,0,
0,0,0,0,0,0,0,0,
0,0,0,0,0,0,0,0,
0,0,0,0,0,0,0,0
</data>
 </layer>
 <layer id="1" name="actions" width="8" height="10">
  <data encoding="csv">
0,0,0,0,0,0,0,0,
0,0,0,0,0,0,0,0,
0,0,0,0,0,0,0,0,
0,0,0,0,312,312,0,0,
0,0,0,0,0,0,0,0,
0,0,0,0,0,0,0,0,
0,0,0,313,313,0,0,0,
0,0,0,0,0,0,0,0,
0,0,0,0,0,0,0,0,
0,0,0,0,0,0,0,0
</data>
 </layer>
 <layer id="2" name="colliders" width="8" height="10">
  <data encoding="csv">
0,0,0,0,0,0,0,0,
0,0,0,0,0,0,0,0,
112,112,114,117,106,109,112,112,
104,0,0,118,0,0,0,119,
104,0,0,0,0,0,0,120,
104,0,0,0,0,0,0,104,
104,104,104,0,0,104,104,104,
0,0,0,0,0,0,0,0,
0,0,0,0,0,0,0,0,
0,0,0,0,0,0,0,0
</data>
 </layer>
</map>
