<?xml version="1.0" encoding="UTF-8"?>
<map version="1.10" tiledversion="1.11.0" orientation="orthogonal" renderorder="right-down" width="12" height="12" tilewidth="32" tileheight="32" infinite="0" nextlayerid="6" nextobjectid="1">
 <tileset firstgid="1" source="../tilesets/forest02_night.tsx"/>
 <tileset firstgid="321" source="../tilesets/blue-labels.tsx"/>
 <layer id="1" name="decor" width="12" height="12">
  <data encoding="csv">
0,0,0,0,0,0,0,0,0,0,0,0,
0,0,0,0,0,107,111,0,0,0,0,0,
0,0,286,320,270,259,258,274,320,283,0,0,
0,0,287,320,271,259,258,275,320,284,0,0,
0,0,288,320,272,259,258,276,320,285,0,0,
0,0,249,248,248,259,258,248,247,252,0,0,
0,0,249,248,247,259,258,248,248,252,0,0,
0,0,317,320,272,259,258,275,320,317,0,0,
0,0,0,320,273,259,258,276,320,0,0,0,
0,0,0,320,274,259,258,277,320,0,0,0,
0,0,320,320,275,259,258,278,320,320,0,0,
0,0,0,0,0,254,254,0,0,0,0,0
</data>
 </layer>
 <layer id="2" name="colliders" width="12" height="12">
  <data encoding="csv">
246,243,268,268,102,106,110,114,268,268,246,243,
245,242,269,269,103,0,0,115,269,269,245,242,
245,242,0,0,0,0,0,0,0,0,245,242,
245,242,0,0,0,0,0,0,0,0,245,242,
245,242,0,0,0,0,0,0,0,0,245,242,
245,242,0,0,0,0,0,0,0,0,245,242,
245,242,0,0,0,0,0,0,0,0,245,242,
245,242,0,0,0,0,0,0,0,0,245,242,
245,242,318,0,0,0,0,0,0,318,245,242,
245,242,319,0,0,0,0,0,0,319,245,242,
244,241,0,0,0,0,0,0,0,0,244,241,
144,144,144,144,144,0,0,144,144,144,144,144
</data>
 </layer>
 <layer id="3" name="actions" width="12" height="12" opacity="0.32">
  <data encoding="csv">
0,0,0,0,0,0,0,0,0,0,0,0,
0,0,0,0,0,522,522,0,0,0,0,0,
0,0,0,0,0,0,0,0,0,0,0,0,
0,0,0,0,0,0,0,0,0,0,0,0,
0,0,0,0,0,0,0,0,0,0,0,0,
0,0,0,0,0,0,0,0,0,0,0,0,
0,0,0,0,0,0,0,0,0,0,0,0,
0,0,0,0,0,0,0,0,0,0,0,0,
0,0,0,0,0,0,0,0,0,0,0,0,
0,0,0,0,0,0,0,0,0,0,0,0,
0,0,0,0,0,0,0,0,0,0,0,0,
0,0,0,0,0,506,506,0,0,0,0,0
</data>
 </layer>
 <layer id="4" name="metadata" width="12" height="12">
  <data encoding="csv">
0,0,0,0,0,0,0,0,0,0,0,0,
0,0,0,0,0,0,0,0,0,0,0,0,
0,0,0,0,0,0,0,0,0,0,0,0,
0,0,0,0,0,0,0,0,0,0,0,0,
0,0,0,0,0,0,0,0,0,0,0,0,
0,0,0,0,0,0,0,0,0,0,0,0,
0,0,0,0,0,0,0,0,0,0,0,0,
0,0,0,0,0,0,0,0,0,0,0,0,
0,0,0,0,0,0,0,0,0,0,0,0,
0,0,0,0,0,0,0,0,0,0,0,0,
0,0,0,0,0,0,0,0,0,0,0,0,
0,0,0,0,0,0,0,0,0,0,0,0
</data>
 </layer>
 <layer id="5" name="characters" width="12" height="12">
  <data encoding="csv">
0,0,0,0,0,0,0,0,0,0,0,0,
0,0,0,0,0,0,0,0,0,0,0,0,
0,0,0,0,0,0,0,0,0,0,0,0,
0,0,0,0,0,0,0,0,0,0,0,0,
0,0,0,0,0,0,0,0,0,0,0,0,
0,0,0,0,0,0,0,0,0,0,0,0,
0,0,0,0,0,0,0,0,0,0,0,0,
0,0,0,0,0,0,0,0,0,0,0,0,
0,0,0,0,0,0,0,0,0,0,0,0,
0,0,0,0,0,0,0,0,0,0,0,0,
0,0,0,0,0,0,0,0,0,0,0,0,
0,0,0,0,0,0,0,0,0,0,0,0
</data>
 </layer>
</map>
