<?xml version="1.0" encoding="UTF-8"?>
<map version="1.10" tiledversion="1.11.2" orientation="orthogonal" renderorder="right-down" width="12" height="10" tilewidth="32" tileheight="32" infinite="0" nextlayerid="6" nextobjectid="1">
 <tileset firstgid="1" source="../tilesets/room02.tsx"/>
 <tileset firstgid="81" source="../tilesets/blue-labels.tsx"/>
 <layer id="2" name="decor" width="12" height="10">
  <data encoding="csv">
0,0,0,0,0,0,0,0,0,0,0,0,
0,39,49,49,49,49,49,49,49,49,39,0,
0,49,49,49,49,49,49,49,49,49,49,0,
0,49,49,49,49,49,49,49,49,46,49,0,
0,49,24,26,26,26,26,26,26,28,49,0,
0,49,25,27,27,27,27,27,27,29,49,0,
0,49,49,49,49,49,49,49,49,49,49,0,
0,49,49,49,49,49,49,49,49,45,49,0,
0,49,49,49,49,49,49,49,49,49,49,0,
0,0,0,0,0,0,0,0,0,0,0,0
</data>
 </layer>
 <layer id="5" name="metadata" width="12" height="10">
  <data encoding="csv">
0,0,0,0,0,0,0,0,0,0,0,0,
0,0,0,0,0,0,0,0,0,0,0,0,
0,0,0,0,0,0,0,0,0,0,0,0,
0,0,0,0,0,0,0,0,0,0,0,0,
0,0,0,0,0,0,0,0,0,0,0,0,
0,0,0,0,0,0,0,0,0,0,0,0,
0,0,0,0,0,0,0,0,0,0,0,0,
0,0,0,0,0,0,0,0,0,0,0,0,
0,0,0,0,0,0,0,0,0,0,0,0,
0,0,0,0,0,0,0,0,0,0,0,0
</data>
 </layer>
 <layer id="1" name="colliders" width="12" height="10">
  <data encoding="csv">
10,38,40,40,40,40,40,40,40,40,38,9,
8,0,0,0,0,0,146,0,0,0,0,7,
8,60,59,61,0,60,59,59,59,59,61,7,
8,0,0,0,0,0,0,0,0,0,1,7,
42,0,0,0,0,0,0,0,0,0,0,7,
43,0,0,0,0,0,0,0,0,0,0,7,
8,0,0,0,0,0,0,0,0,0,0,7,
8,0,0,0,0,0,0,0,0,0,0,7,
8,60,59,59,59,59,59,59,59,59,61,7,
11,5,5,5,5,5,5,5,5,5,5,12
</data>
 </layer>
 <layer id="3" name="characters" width="12" height="10">
  <data encoding="csv">
0,0,0,0,0,0,0,0,0,0,0,0,
0,0,0,0,0,0,0,0,0,0,0,0,
0,0,0,0,0,0,0,0,0,0,0,0,
0,0,0,0,0,0,0,0,0,0,0,0,
0,0,0,0,0,0,0,0,0,0,0,0,
0,0,0,0,0,0,0,0,0,0,0,0,
0,0,0,0,0,0,0,0,0,0,0,0,
0,0,0,0,0,0,0,0,0,0,0,0,
0,0,0,0,0,0,0,0,0,0,0,0,
0,0,0,0,0,0,0,0,0,0,0,0
</data>
 </layer>
 <layer id="4" name="actions" width="12" height="10">
  <data encoding="csv">
0,0,0,0,0,0,0,0,0,0,0,0,
0,0,0,0,0,0,0,0,0,0,0,0,
0,0,0,0,0,0,0,0,0,0,0,0,
0,408,408,408,0,408,405,408,408,408,409,0,
0,407,0,0,0,0,0,0,0,0,409,0,
0,407,0,0,0,0,0,0,0,0,0,0,
0,0,0,0,0,0,0,0,0,0,0,0,
0,408,408,408,408,408,408,408,408,408,408,0,
0,0,0,0,0,0,0,0,0,0,0,0,
0,0,0,0,0,0,0,0,0,0,0,0
</data>
 </layer>
</map>
