<?xml version="1.0" encoding="UTF-8"?>
<map version="1.10" tiledversion="1.11.2" orientation="orthogonal" renderorder="right-down" width="10" height="10" tilewidth="32" tileheight="32" infinite="0" nextlayerid="6" nextobjectid="1">
 <tileset firstgid="1" source="../tilesets/room02.tsx"/>
 <tileset firstgid="81" source="../tilesets/blue-labels.tsx"/>
 <layer id="1" name="decor" width="10" height="10">
  <data encoding="csv">
0,0,55,0,0,0,0,0,0,0,
0,0,0,0,0,2,0,2,64,0,
0,0,0,0,0,2,64,0,0,0,
0,46,2,2,2,2,33,35,37,0,
0,2,24,26,26,26,26,28,64,0,
0,2,25,27,27,27,27,29,2,0,
0,2,2,0,2,2,47,2,2,0,
0,44,2,2,2,2,2,45,2,0,
0,45,2,2,2,2,2,2,2,0,
0,0,0,0,2,2,0,0,0,0
</data>
 </layer>
 <layer id="2" name="colliders" width="10" height="10">
  <data encoding="csv">
10,6,55,56,57,58,38,6,38,9,
7,54,50,52,53,0,39,0,39,8,
7,1,1,1,1,0,32,34,36,8,
7,0,0,0,0,0,0,0,0,8,
7,0,0,0,0,0,0,0,45,8,
7,0,0,0,0,0,0,0,0,8,
7,0,0,48,0,0,0,0,0,8,
7,0,0,0,0,0,0,0,0,8,
7,0,0,0,0,0,0,0,0,8,
11,5,5,5,0,0,5,5,5,12
</data>
 </layer>
 <layer id="3" name="characters" width="10" height="10" opacity="0.32">
  <data encoding="csv">
0,0,0,0,0,0,0,0,0,0,
0,0,0,0,0,0,0,94,0,0,
0,0,0,0,0,0,0,0,0,0,
0,0,0,0,0,0,0,0,0,0,
0,0,0,0,0,0,0,0,0,0,
0,0,0,0,0,0,0,0,0,0,
0,0,0,0,0,0,0,0,0,0,
0,0,0,0,0,0,0,0,0,0,
0,0,0,0,0,0,0,0,0,0,
0,0,0,0,0,0,0,0,0,0
</data>
 </layer>
 <layer id="4" name="actions" width="10" height="10" opacity="0.45">
  <data encoding="csv">
0,0,0,0,0,0,0,0,0,0,
0,0,0,0,0,0,0,0,0,0,
0,184,185,186,187,0,0,0,0,0,
0,184,185,186,187,0,180,180,180,0,
0,0,0,0,0,0,180,180,180,0,
0,0,0,0,0,0,0,0,0,0,
0,183,0,0,0,0,0,0,0,0,
0,183,183,0,0,0,0,0,0,0,
0,183,0,0,0,0,0,0,0,0,
0,0,0,0,182,182,0,0,0,0
</data>
 </layer>
 <layer id="5" name="metadata" width="10" height="10">
  <data encoding="csv">
0,0,0,0,0,0,0,0,0,0,
0,0,0,0,0,0,0,0,0,0,
0,0,0,0,0,0,0,0,0,0,
0,0,0,0,0,0,0,0,0,0,
0,0,0,0,0,0,0,0,0,0,
0,0,0,0,0,0,0,0,0,0,
0,0,0,0,0,0,0,0,0,0,
0,0,0,0,0,0,0,0,0,0,
0,0,0,0,0,0,0,0,0,0,
0,0,0,0,0,0,0,0,0,0
</data>
 </layer>
</map>
