<?xml version="1.0" encoding="UTF-8"?>
<map version="1.10" tiledversion="1.11.2" orientation="orthogonal" renderorder="right-down" width="32" height="24" tilewidth="32" tileheight="32" infinite="0" nextlayerid="3" nextobjectid="1">
 <tileset firstgid="1" source="../tilesets/forest01.tsx"/>
 <layer id="1" name="decor" width="32" height="24">
  <data encoding="csv">
0,0,0,0,0,0,0,0,0,0,0,0,0,0,0,0,0,0,0,0,0,0,0,0,0,0,0,0,0,0,0,0,
0,0,0,0,0,0,0,0,0,0,0,0,0,0,0,0,0,0,0,0,0,0,0,0,0,1,1,1,1,1,1,1,
0,0,1,1,1,1,1,1,1,1,1,1,1,1,1,3,1,1,1,1,1,0,0,0,0,1,1,1,1,1,1,0,
0,0,1,1,3,1,1,1,1,1,1,1,1,1,1,1,1,4,1,1,1,0,0,0,0,1,1,1,1,1,0,0,
0,1,1,1,1,1,1,1,3,1,1,11,12,1,1,1,1,1,1,1,1,0,0,0,0,1,1,1,1,1,0,0,
0,3,1,1,0,0,0,0,1,1,0,253,254,0,1,1,0,0,0,0,1,1,0,0,0,244,249,249,249,247,1,0,
0,0,1,0,0,0,0,0,1,1,0,253,254,0,1,1,0,0,0,0,0,1,0,0,1,243,249,249,249,246,0,0,
0,0,1,0,0,0,0,1,1,1,0,253,254,0,1,1,0,0,0,0,0,0,0,0,0,243,249,249,249,246,0,0,
0,1,3,0,0,0,0,0,0,0,0,253,254,0,0,0,0,0,0,0,0,0,0,0,0,243,249,249,249,246,0,0,
0,1,1,0,0,0,0,0,11,8,8,8,8,8,8,12,0,0,0,0,0,1,0,0,1,243,249,249,249,246,0,0,
0,0,1,0,0,0,0,0,7,2,2,2,2,2,2,5,0,0,0,0,0,1,0,0,0,243,249,249,249,246,1,0,
0,0,4,0,0,0,0,0,7,2,2,2,2,2,2,5,0,0,0,0,0,0,0,0,0,243,249,249,249,246,0,0,
0,1,1,0,0,0,0,0,7,2,2,2,2,2,2,5,0,1,0,0,1,0,0,0,0,245,249,249,249,248,0,0,
0,3,1,0,0,0,0,0,10,6,6,6,6,6,6,9,0,1,1,0,0,0,0,0,1,1,1,1,1,1,1,0,
0,0,1,0,0,0,0,0,1,1,1,1,1,1,1,1,0,1,1,0,0,0,1,1,1,1,3,1,1,1,1,0,
0,0,1,0,0,0,0,0,0,1,1,1,1,1,1,0,0,1,3,1,1,1,3,1,1,1,53,57,51,1,0,0,
0,1,3,1,0,0,1,0,23,0,0,0,0,0,0,21,0,1,1,1,1,3,1,0,0,0,1,52,1,1,0,0,
0,1,1,1,1,1,3,1,1,1,1,0,0,3,1,1,1,1,0,0,0,1,1,0,0,0,1,1,3,1,0,0,
0,1,1,3,1,1,1,1,1,1,1,4,1,1,1,1,1,3,0,0,0,0,0,0,0,0,0,1,1,0,0,0,
0,0,1,1,1,1,1,1,1,1,1,1,1,1,1,1,1,1,1,1,1,0,0,0,0,0,0,1,1,0,0,0,
0,0,0,1,0,0,0,0,0,0,0,0,0,0,0,0,0,0,0,0,0,0,0,0,0,0,1,3,1,1,0,0,
0,0,0,0,0,0,0,0,0,0,0,0,0,0,0,0,0,0,0,0,0,0,0,0,0,0,0,1,1,0,0,0,
0,0,1,0,0,0,0,0,0,0,0,0,0,0,0,0,0,0,0,0,0,0,0,0,0,0,0,1,4,0,0,0,
1,1,1,1,0,0,0,0,0,0,0,0,0,0,0,0,0,0,0,0,0,0,0,0,0,0,1,1,1,1,0,0
</data>
 </layer>
 <layer id="2" name="colliders" width="32" height="24">
  <data encoding="csv">
72,74,76,79,79,79,79,79,79,79,79,79,79,79,79,79,79,79,79,79,79,35,42,46,33,35,33,35,33,35,33,35,
73,75,77,80,80,80,80,80,80,80,80,80,80,80,80,80,80,80,80,80,80,32,43,47,34,0,0,0,0,0,0,0,
42,34,78,81,81,81,81,81,81,81,81,81,81,81,81,81,81,81,81,81,81,33,44,48,35,0,0,0,0,0,0,42,
48,35,0,0,0,0,0,0,0,0,0,0,0,0,0,0,0,0,0,0,0,32,43,47,34,0,0,0,0,0,32,43,
49,0,0,0,0,0,0,0,0,0,0,0,0,0,0,0,0,0,0,0,0,33,44,48,35,0,0,0,0,0,33,44,
46,0,0,0,42,46,42,34,0,0,1,0,0,3,0,0,32,46,42,46,0,0,45,49,17,0,0,0,0,0,0,45,
47,34,0,32,43,47,43,35,0,0,1,0,0,1,0,0,33,47,43,47,34,0,42,46,0,0,0,0,0,0,17,42,
48,35,0,33,44,48,35,0,0,0,1,0,0,1,0,0,32,48,44,48,35,32,43,47,34,0,0,0,0,0,32,43,
49,0,0,32,43,47,34,1,250,251,251,0,0,251,251,252,33,47,43,47,34,33,44,48,35,0,0,0,0,0,33,44,
46,0,0,33,44,48,35,25,0,0,0,0,0,0,0,0,24,33,44,48,35,0,45,49,0,0,0,0,0,0,17,45,
47,34,0,32,43,47,34,25,0,63,0,63,0,0,0,0,24,32,43,47,34,0,42,46,17,0,0,0,0,0,0,42,
48,35,0,33,44,48,35,25,0,0,63,0,0,63,0,0,24,33,44,48,35,32,43,47,34,0,0,0,0,0,32,43,
49,0,0,32,43,47,34,25,0,0,0,0,63,0,63,0,24,0,45,49,0,33,44,48,35,0,0,0,0,0,33,44,
46,0,0,33,44,48,35,25,0,0,0,0,0,0,0,0,24,0,0,40,36,38,45,49,0,0,0,0,0,0,0,45,
47,34,0,32,43,47,34,25,0,0,0,0,0,0,0,0,24,0,0,41,37,39,0,0,0,0,0,0,0,0,0,42,
48,35,0,33,44,48,35,25,22,0,0,0,0,0,0,20,24,0,0,0,0,0,0,0,0,0,0,0,0,0,32,43,
49,0,0,0,45,49,0,1,0,18,18,93,95,18,18,0,1,0,0,0,0,0,0,40,36,38,0,0,0,0,33,44,
34,0,0,0,0,0,0,0,60,19,19,94,96,19,19,59,0,0,40,36,38,0,0,41,37,39,0,0,0,0,1,45,
35,0,0,0,0,0,0,0,0,0,0,0,0,0,0,0,0,0,41,37,39,40,36,38,40,36,38,0,0,40,36,38,
42,46,0,0,0,0,0,0,0,0,0,0,0,0,0,0,0,0,0,0,0,41,37,39,41,37,39,0,0,41,37,39,
43,47,34,0,42,46,42,46,42,46,42,46,42,46,42,46,42,46,42,46,42,46,42,46,42,46,0,0,0,0,42,46,
44,48,35,32,43,47,43,47,43,47,43,47,43,47,43,47,43,47,43,47,43,47,43,47,43,47,34,0,0,32,43,47,
45,49,0,33,44,48,44,48,44,48,44,48,44,48,44,48,44,48,44,48,44,48,44,48,44,48,35,0,0,33,44,48,
0,0,0,0,45,49,45,49,45,49,45,49,45,49,45,49,45,49,45,49,45,49,45,49,45,49,0,0,0,0,45,49
</data>
 </layer>
</map>
