<?xml version="1.0" encoding="UTF-8"?>
<map version="1.10" tiledversion="1.11.2" orientation="orthogonal" renderorder="right-down" width="9" height="10" tilewidth="32" tileheight="32" infinite="0" nextlayerid="7" nextobjectid="1">
 <tileset firstgid="1" source="../tilesets/train01.tsx"/>
 <tileset firstgid="214" source="../tilesets/blue-labels.tsx"/>
 <layer id="2" name="metadata" width="9" height="10">
  <data encoding="csv">
0,0,0,0,0,0,0,0,0,
0,0,0,0,0,0,0,0,0,
0,0,0,0,0,0,0,0,0,
0,0,0,0,0,0,0,0,0,
0,0,0,0,0,0,0,0,0,
0,0,0,0,0,0,0,0,0,
0,0,0,0,0,0,0,0,0,
0,0,0,0,0,0,0,214,0,
0,0,0,0,0,0,0,0,0,
0,0,0,0,0,0,0,0,0
</data>
 </layer>
 <layer id="5" name="colliders" width="9" height="10">
  <data encoding="csv">
0,155,51,51,162,51,51,156,0,
0,155,46,46,46,46,46,156,0,
0,155,131,0,0,0,129,156,0,
0,155,132,0,0,0,130,156,0,
0,155,131,0,0,0,129,156,0,
0,155,132,0,0,0,130,156,0,
0,155,123,0,0,0,123,156,0,
0,161,161,161,0,161,161,161,0,
0,0,0,0,0,0,0,0,0,
0,0,0,0,0,0,0,0,0
</data>
 </layer>
 <layer id="6" name="decor" width="9" height="10">
  <data encoding="csv">
4,0,0,0,0,0,0,0,4,
4,0,0,0,0,0,0,0,4,
4,0,0,120,168,120,0,0,4,
4,0,0,120,168,120,0,0,4,
4,0,0,120,168,120,0,0,4,
4,0,0,120,168,120,0,0,4,
4,0,0,120,168,120,0,0,4,
4,0,0,0,168,0,0,0,4,
4,4,4,4,4,4,4,4,4,
4,4,4,4,4,4,4,4,4
</data>
 </layer>
 <layer id="4" name="actions" width="9" height="10">
  <data encoding="csv">
0,0,0,0,0,0,0,0,0,
0,0,0,0,0,0,0,0,0,
0,0,0,0,471,470,0,0,0,
0,0,0,471,0,470,0,0,0,
0,0,0,0,0,470,0,0,0,
0,0,0,0,0,0,0,0,0,
0,0,0,0,469,0,0,0,0,
0,0,0,0,461,0,0,0,0,
0,0,0,0,0,0,0,0,0,
0,0,0,0,0,0,0,0,0
</data>
 </layer>
 <layer id="3" name="characters" width="9" height="10">
  <data encoding="csv">
0,0,0,0,0,0,0,0,0,
0,0,0,0,0,0,0,0,0,
0,0,0,219,0,0,0,0,0,
0,0,0,0,0,0,238,0,0,
0,0,0,0,0,0,0,0,0,
0,0,0,0,0,0,0,0,0,
0,0,0,0,0,0,0,0,0,
0,0,0,0,0,0,0,0,0,
0,0,0,0,0,0,0,0,0,
0,0,0,0,0,0,0,0,0
</data>
 </layer>
</map>
