<?xml version="1.0" encoding="UTF-8"?>
<map version="1.10" tiledversion="1.11.2" orientation="orthogonal" renderorder="right-down" width="8" height="10" tilewidth="32" tileheight="32" infinite="0" nextlayerid="6" nextobjectid="1">
 <tileset firstgid="1" source="../tilesets/train01.tsx"/>
 <tileset firstgid="214" source="../tilesets/blue-labels.tsx"/>
 <layer id="1" name="decor" width="8" height="10">
  <data encoding="csv">
0,0,134,137,142,145,0,0,
0,0,0,0,0,0,0,0,
0,0,0,0,144,0,0,0,
0,0,133,133,133,133,0,0,
0,0,133,133,133,133,0,0,
0,0,133,4,4,133,0,0,
0,0,0,0,0,0,0,0,
0,0,0,0,0,0,0,0,
0,0,0,0,0,0,0,0,
0,0,0,0,0,0,0,0
</data>
 </layer>
 <layer id="2" name="colliders" width="8" height="10">
  <data encoding="csv">
4,4,0,0,0,0,4,4,
4,4,135,138,143,146,4,4,
4,4,136,139,0,147,4,4,
4,4,0,0,0,0,4,4,
4,4,0,0,0,0,4,4,
4,4,0,0,0,0,4,4,
4,4,4,4,4,4,4,4,
4,4,4,4,4,4,4,4,
4,4,4,4,4,4,4,4,
4,4,4,4,4,4,4,4
</data>
 </layer>
 <layer id="3" name="metadata" width="8" height="10">
  <data encoding="csv">
0,0,0,0,0,0,0,0,
0,0,0,0,0,0,0,0,
0,0,0,0,0,0,0,0,
0,0,0,0,0,0,0,0,
0,0,0,0,0,0,0,0,
0,0,0,0,0,0,0,0,
0,0,0,0,0,0,0,0,
0,0,0,0,0,0,0,0,
0,0,0,0,0,0,0,0,
0,0,0,0,0,0,0,0
</data>
 </layer>
 <layer id="4" name="actions" width="8" height="10" opacity="0.25">
  <data encoding="csv">
0,0,0,0,0,0,0,0,
0,0,0,0,0,0,0,0,
0,0,468,468,0,0,0,0,
0,0,468,468,0,0,0,0,
0,0,0,0,0,0,0,0,
0,0,0,466,466,0,0,0,
0,0,0,0,0,0,0,0,
0,0,0,0,0,0,0,0,
0,0,0,0,0,0,0,0,
0,0,0,0,0,0,0,0
</data>
 </layer>
 <layer id="5" name="characters" width="8" height="10">
  <data encoding="csv">
0,0,0,0,0,0,0,0,
0,0,0,0,0,0,0,0,
0,0,0,0,0,0,0,0,
0,0,0,0,0,0,0,0,
0,0,0,0,0,0,0,0,
0,0,0,0,0,0,0,0,
0,0,0,0,0,0,0,0,
0,0,0,0,0,0,0,0,
0,0,0,0,0,0,0,0,
0,0,0,0,0,0,0,0
</data>
 </layer>
</map>
