<?xml version="1.0" encoding="UTF-8"?>
<map version="1.10" tiledversion="1.11.2" orientation="orthogonal" renderorder="right-down" width="16" height="16" tilewidth="32" tileheight="32" infinite="0" nextlayerid="5" nextobjectid="1">
 <tileset firstgid="1" source="../tilesets/underground02.tsx"/>
 <tileset firstgid="257" source="../tilesets/blue-labels.tsx"/>
 <layer id="1" name="decor" width="16" height="16">
  <data encoding="csv">
0,0,0,0,0,0,0,0,0,32,0,0,0,0,32,90,
0,0,0,0,0,0,0,0,0,33,0,26,28,0,33,90,
0,0,101,107,113,9,6,137,143,33,0,23,22,0,33,92,
0,0,102,108,114,9,6,138,144,33,0,23,22,0,33,93,
0,0,103,109,115,9,6,139,145,33,0,23,22,0,33,94,
32,32,32,32,32,32,32,32,32,33,0,23,22,0,33,32,
0,0,0,0,0,0,0,0,0,0,0,23,22,0,33,33,
0,2,2,2,2,2,2,2,2,2,2,1,1,0,198,196,
0,4,1,3,3,3,3,3,3,3,3,3,3,0,199,197,
0,13,16,0,0,0,0,0,0,0,0,0,0,0,110,116,
0,13,16,0,105,111,117,123,129,135,141,9,6,105,111,117,
0,13,16,0,106,112,118,124,130,136,142,9,6,106,112,118,
0,13,16,0,107,113,0,0,0,137,143,9,6,107,113,113,
0,13,16,0,108,114,0,0,0,138,144,9,6,108,114,114,
0,13,16,0,109,115,0,0,0,139,145,9,6,109,115,115,
0,13,16,0,0,0,0,0,0,0,0,0,0,0,0,0
</data>
 </layer>
 <layer id="3" name="colliders" width="16" height="16">
  <data encoding="csv">
0,0,0,0,0,0,0,0,0,0,32,25,27,32,0,0,
0,0,0,0,0,0,0,0,0,0,33,0,0,33,0,0,
0,0,0,0,0,0,0,0,0,0,33,0,0,33,0,0,
0,0,0,0,0,0,0,0,0,0,33,0,0,33,0,0,
0,0,0,0,0,0,0,0,0,0,33,0,0,33,0,0,
0,0,0,0,0,0,0,0,0,0,33,0,0,33,0,0,
33,33,33,33,33,33,33,33,33,33,33,0,0,33,0,0,
194,0,0,0,0,0,0,0,0,0,0,0,0,200,0,0,
195,0,0,0,0,0,0,0,0,0,0,0,0,201,0,0,
203,0,0,98,104,110,116,122,128,134,140,9,6,104,0,0,
203,0,0,99,0,0,0,0,0,0,0,0,0,0,0,0,
203,0,0,100,0,0,0,0,0,0,0,0,0,0,0,0,
203,0,0,101,0,0,0,0,0,0,0,0,0,0,0,0,
203,0,0,102,0,0,0,0,0,0,0,0,0,0,0,0,
203,0,0,103,0,0,0,0,0,0,0,0,0,0,0,0,
203,0,0,203,0,0,0,0,0,0,0,0,0,0,0,0
</data>
 </layer>
 <layer id="4" name="actions" width="16" height="16">
  <data encoding="csv">
0,0,0,0,0,0,0,0,0,0,0,0,0,0,0,0,
0,0,0,0,0,0,0,0,0,0,0,579,579,0,0,0,
0,0,0,0,0,0,0,0,0,0,0,0,0,0,0,0,
0,0,0,0,0,0,0,0,0,0,0,0,0,0,0,0,
0,0,0,0,0,0,0,0,0,0,0,0,0,0,0,0,
0,0,0,0,0,0,0,0,0,0,0,0,0,0,0,0,
0,0,0,0,0,0,0,0,0,0,0,0,0,0,0,0,
0,0,0,0,0,0,0,578,0,0,0,0,0,0,0,0,
0,0,0,0,0,0,0,578,0,0,0,0,0,0,0,0,
0,0,0,0,0,0,0,0,0,0,0,0,0,0,0,0,
0,0,0,0,0,0,0,0,0,0,0,0,0,0,0,0,
0,0,0,0,0,0,0,0,0,0,0,0,0,0,0,0,
0,0,0,0,0,0,0,0,0,0,0,0,0,0,0,0,
0,0,0,0,0,0,0,0,0,0,0,0,0,0,0,0,
0,0,0,0,0,0,0,0,0,0,0,0,0,0,0,0,
0,0,0,0,0,0,0,0,0,0,0,0,0,0,0,0
</data>
 </layer>
 <layer id="2" name="characters" width="16" height="16">
  <data encoding="csv">
0,0,0,0,0,0,0,0,0,0,0,0,0,0,0,0,
0,0,0,0,0,0,0,0,0,0,0,0,0,0,0,0,
0,0,0,0,0,0,0,0,0,0,0,0,0,0,0,0,
0,0,0,0,0,0,0,0,0,0,0,0,0,0,0,0,
0,0,0,0,0,0,0,0,0,0,0,0,0,0,0,0,
0,0,0,0,0,0,0,0,0,0,0,0,0,0,0,0,
0,0,0,0,0,0,0,0,0,0,0,0,0,0,0,0,
0,0,0,0,0,0,0,0,0,0,0,260,0,0,0,0,
0,0,0,0,0,0,0,0,0,0,0,0,0,0,0,0,
0,0,0,0,0,0,0,0,0,0,0,0,0,0,0,0,
0,0,0,0,0,0,0,0,0,0,0,0,0,0,0,0,
0,0,0,0,0,0,0,0,0,0,0,0,0,0,0,0,
0,0,0,0,0,0,0,0,0,0,0,0,0,0,0,0,
0,0,0,0,0,0,0,0,0,0,0,0,0,0,0,0,
0,0,0,0,0,0,0,0,0,0,0,0,0,0,0,0,
0,0,0,0,0,0,0,0,0,0,0,0,0,0,0,0
</data>
 </layer>
</map>
